;FLAVOR:Marlin
;TIME:3142.48
;Filament used:3.56081m
;Layer height:0.2
;MINX:42.289
;MINY:47.43
;MINZ:0.2
;MAXX:119.493
;MAXY:118.218
;MAXZ:12.6
;OuterWall Time:449.507
;InnerWall Time:292.635
;Skin Time:526.566
;Support Time:709.869
;SkirtBrim Time:62.3141
;Infill Time:111.014
;Support Infills Time:0
;Combing Time:253.306
;Retraction Time:598.125
;PrimeTower Time:139.143
;;;;;;;;;;;;;;;;;;;;;;;;;;;;;;;;;;;;;;;;;;;;;;;;;;;;;;;;;;;;
;Creality Print GCode Generated by CXEngine
;CRSLICE_GIT_HASH:d90fa71
;Creality Print Version : V4.3.8.6674
;CXEngine Release Time:2023-10-16 18:06:53
;Gcode Generated Time:2024-11-27 13:30:24
;----------Machine Config--------------
;Machine Name:Ender-3 V3 SE
;Machine Height:250
;Machine Width:220
;Machine Depth:220
;Material Type:PLA
;Material Name:CR-PLA_1.75
;Number of Extruders:1
;ExtruderParams[0] Nozzle Diameter:1000
;----------Profile Config---------------
;Wall Thickness:0.8
;Top/Bottom Thickness:0.8
;Out Wall Line Width:0.42
;Inner Wall Line Width:0.45
;Inital Height:200
;Wall Line Count:2
;Infill Line Distance:8
;Infill Pattern:grid
;Infill Sparse Density:10
;Infill Wipe Distance:0
;Print Temperature:190
;Bed Temperature:60
;Support Enable:false
;Support Density:15
;Support Angle:60
;Adhesion Type:autobrim
;machine is belt:false
;machine belt offset:10
;machine belt offset Y:0
;Raft Base Line Spacing:1.6
;Wait Heatup Sync:true
;Enable Ironing:false
;Material Type:PLA
;Max volumetric speed:20
;Material Diameter:1.75
;Material Density:1.24
;Filament Cost:20
;Filament Weight:1000
;Preview Img Type:png
;Screen Size:Sermoon D3
;----------Shell Config----------------
;Outer Wall Wipe Distance:200
;Outer Inset First:false
;Infill Before Walls:false
;Infill Overlap:0.04
;Fill Gaps Between Walls:everywhere
;Minimum Infill Area:15
;Top Surface Skin Layer:0
;Top Layers:4
;Z Seam Alignment:sharpest_corner
;Seam Corner Preference:z_seam_corner_inner
;Z Seam X:110
;Z Seam Y:220
;Horizontal Expansion:0
;Top/Bottom Pattern:zigzag
;Ironing Pattern:zigzag
;Vase Model:false
;----------Support Config----------------
;Support Type:everywhere
;Support Pattern:zigzag
;Support Infill Layer Thickness:0.15
;Minimum Support Area:1
;Enable Support Roof:true
;Support Roof Thickness:0.8
;Support Roof Pattern:lines
;Connect Support Lines:0
;Connect Support ZigZags:1
;Minimum Support X/Y Distance:0.2
;Support Line Distance:2.67
; ---------PrintSpeed & Travel----------
;Enable Print Cool:true
;Avoid Printed Parts Traveling:true
;Enable Retraction:true
;Retraction Distance:0.8
;Retraction Speed:25
;Retraction Prime Speed:25
;Maximum Retraction Count:100
;Minimum Extrusion Distance Window:0.8
;Z Hop When Retracted:false
;Z Hop Height:0.2
;Retract Before Outer Wall:true

;Outer Wall Speed:60
;Inner Wall Speed:90
;Infill Speed:180
;Top/Bottom Speed:50
;Travel Speed:150
;Initial Layer Speed:30
;Skirt/Brim Speed:25
;Prime Tower Speed:60
;Outer Wall Acceleration:1000
;Inner Wall Acceleration:2000
;Infill Acceleration:2500
;Top/Bottom Acceleration:2500
;Travel Acceleration:2500
;Initial Layer Print Acceleration:500
;Initial Layer Travel Acceleration:500
;Skirt/Brim Acceleration:500
;Combing Mode:no_outer_surfaces
; --------SpecialModel&Mesh Fixes--------
;Union Overlapping Volum:true
;Remove All Holes:false
;Maximum Travel Resolution:0.25
;Maximum Deviation:0.05
;Maximum Model Angle:0.872665
;IS Mold Print:false
;Make Overhang Printable:false
;Enable Coasting:false
;Coasting Volumes:0.064
;Coasting Speed:0.9
;Raft AirGap:0.25
;Layer0 ZOverLap:0.13
;Adaptive Layers:0
;---------------------End of Head--------------------------
M140 S60
M105
M190 S60
M104 S190
M82 ;absolute extrusion mode
M220 S100 ;Reset Feedrate
M221 S100 ;Reset Flowrate

G28 ;Home

G92 E0 ;Reset Extruder
G1 Z2.0 F3000 ;Move Z Axis up
G1 X-2.1 Y20 Z0.28 F5000.0 ;Move to start position
M109 S190.000000
G1 X-2.1 Y145.0 Z0.28 F1500.0 E15 ;Draw the first line
G1 X-2.4 Y145.0 Z0.28 F5000.0 ;Move to side a little
G1 X-2.4 Y20 Z0.28 F1500.0 E30 ;Draw the second line
G92 E0  ;Reset Extruder
G1 E-1.0000 F1800 ;Retract a bit
G1 Z2.0 F3000 ;Move Z Axis up
G1 E0.0000 F1800 

G92 E0
G92 E0
G1 F1500 E-0.8
;LAYER_COUNT:65

;LAYER:0
M106 S0
M204 S500
G0 F4800 X47.454 Y70.287 Z0.2
G0 X47.954 Y71.345
;TYPE:SKIRT
G1 F1500 E0
G1 X47.954 Y89.303 E0.68986
G1 X47.723 Y89.303 E0.69874
G1 X47.723 Y90.37 E0.73973
G1 X47.857 Y90.534 E0.74786
G1 X56.979 Y90.534 E1.09829
G1 X57.143 Y90.4 E1.10643
G1 X57.143 Y73.303 E1.76321
G1 X56.912 Y73.303 E1.77209
G1 X56.912 Y90.303 E2.42515
G1 X47.954 Y90.303 E2.76928
G1 X47.954 Y89.303 E2.80769
G1 X52.412 Y89.303 E2.97895
G1 X52.412 Y73.303 E3.5936
G1 X56.912 Y73.303 E3.76647
G1 X56.912 Y71.345 E3.84168
G1 X47.954 Y71.345 E4.18581
G0 F4800 X47.454 Y70.287
G1 F1500 X47.141 Y70.524 E4.20089
G1 X46.956 Y70.764 E4.21253
G1 X46.839 Y71.044 E4.22419
G1 X46.799 Y71.345 E4.23585
G1 X46.799 Y90.303 E4.96413
G1 X46.836 Y90.593 E4.97536
G1 X46.95 Y90.874 E4.98701
G1 X47.133 Y91.116 E4.99867
G1 X47.373 Y91.301 E5.01031
G1 X47.653 Y91.418 E5.02197
G1 X47.954 Y91.458 E5.03363
G1 X56.912 Y91.458 E5.37776
G1 X57.202 Y91.421 E5.38899
G1 X57.483 Y91.307 E5.40064
G1 X57.725 Y91.124 E5.41229
G1 X57.91 Y90.884 E5.42393
G1 X58.027 Y90.604 E5.43559
G1 X58.067 Y90.303 E5.44726
G1 X58.067 Y73.303 E6.10032
G1 X57.605 Y73.303 E6.11807
G1 X57.605 Y90.303 E6.77113
G1 X57.451 Y90.739 E6.78889
G1 X57.274 Y90.894 E6.79793
G1 X57.02 Y90.996 E6.80845
G1 X47.795 Y90.996 E7.16283
G1 X47.41 Y90.782 E7.17975
G1 X47.261 Y90.411 E7.19511
G1 X47.261 Y71.176 E7.93403
G1 X47.454 Y70.875 E7.94777
G1 X47.454 Y70.287 E7.97035
;;retract;;
G1 F1500 E7.41035
G1 F2400 X46.956 Y70.764 E7.33181
G1 X46.839 Y71.044 E7.29727
G1 X46.799 Y71.345 E7.26272
G1 X46.799 Y72.049 E7.18235
G1 F1500 E7.17035
G0 F4800 X47.454 Y70.287
G0 X47.954 Y62.382
G1 F1500 E7.97035
G1 X65.875 Y62.382 E8.6588
G1 X65.875 Y68.845 E8.90708
G1 X66.337 Y68.845 E8.92482
G1 X66.337 Y61.92 E9.19085
G1 X47.954 Y61.92 E9.89704
G1 X47.597 Y61.88 E9.91084
G1 X47.258 Y61.762 E9.92463
G1 X46.953 Y61.573 E9.93842
G1 X46.697 Y61.321 E9.95222
G1 X46.504 Y61.018 E9.96602
G1 X46.382 Y60.68 E9.97982
G1 X46.337 Y60.303 E9.99441
G1 X46.337 Y51.345 E10.33853
G1 X46.377 Y50.988 E10.35233
G1 X46.495 Y50.649 E10.36612
G1 X46.684 Y50.344 E10.37991
G1 X46.936 Y50.088 E10.3937
G1 X47.239 Y49.895 E10.40751
G1 X47.577 Y49.773 E10.42131
G1 X47.954 Y49.728 E10.4359
G1 X86.912 Y49.728 E11.93248
G1 X87.269 Y49.768 E11.94628
G1 X87.608 Y49.886 E11.96007
G1 X87.913 Y50.075 E11.97386
G1 X88.169 Y50.327 E11.98766
G1 X88.362 Y50.63 E12.00146
G1 X88.44 Y50.845 E12.01024
G1 X88.923 Y50.845 E12.0288
G1 X88.832 Y50.548 E12.04073
G1 X88.64 Y50.189 E12.05637
G1 X88.381 Y49.874 E12.07204
G1 X88.066 Y49.616 E12.08768
G1 X87.707 Y49.424 E12.10332
G1 X87.317 Y49.306 E12.11897
G1 X86.912 Y49.266 E12.13461
G1 X47.954 Y49.266 E13.63119
G1 X47.547 Y49.306 E13.64691
G1 X47.157 Y49.425 E13.66257
G1 X46.798 Y49.617 E13.67821
G1 X46.483 Y49.876 E13.69387
G1 X46.225 Y50.191 E13.70952
G1 X46.033 Y50.55 E13.72516
G1 X45.915 Y50.94 E13.74081
G1 X45.875 Y51.345 E13.75644
G1 X45.875 Y60.303 E14.10057
G1 X45.915 Y60.71 E14.11628
G1 X46.034 Y61.1 E14.13194
G1 X46.226 Y61.459 E14.14758
G1 X46.485 Y61.774 E14.16325
G1 X46.8 Y62.032 E14.17889
G1 X47.159 Y62.224 E14.19453
G1 X47.549 Y62.342 E14.21018
G1 X47.954 Y62.382 E14.22582
G0 F4800 X47.857 Y60.534
G1 F1500 X67.563 Y60.534 E14.98283
G1 X67.723 Y60.694 E14.99152
G1 X67.723 Y68.845 E15.30465
G1 X67.954 Y68.845 E15.31352
G1 X67.954 Y60.599 E15.6303
G1 X67.658 Y60.303 E15.64638
G1 X47.954 Y60.303 E16.40332
G1 X47.954 Y51.345 E16.74744
G1 X69.454 Y51.345 E17.57337
G1 X69.454 Y51.114 E17.58225
G1 X47.887 Y51.114 E18.41075
G1 X47.723 Y51.248 E18.41889
G1 X47.723 Y60.37 E18.76932
G1 X47.857 Y60.534 E18.77745
G0 F4800 X47.954 Y61.458
G1 F1500 X66.799 Y61.458 E19.50139
G1 X66.799 Y68.845 E19.78517
G1 X67.261 Y68.845 E19.80291
G1 X67.261 Y60.996 E20.10444
G1 X47.954 Y60.996 E20.84612
G1 X47.518 Y60.842 E20.86389
G1 X47.363 Y60.665 E20.87292
G1 X47.261 Y60.411 E20.88344
G1 X47.261 Y51.186 E21.23782
G1 X47.475 Y50.801 E21.25474
G1 X47.846 Y50.652 E21.2701
G1 X87.081 Y50.652 E22.77733
G1 X87.382 Y50.845 E22.79107
G1 X87.97 Y50.845 E22.81366
G1 X87.733 Y50.532 E22.82874
G1 X87.493 Y50.347 E22.84038
G1 X87.213 Y50.23 E22.85204
G1 X86.912 Y50.19 E22.8637
G1 X47.954 Y50.19 E24.36029
G1 X47.664 Y50.227 E24.37152
G1 X47.383 Y50.341 E24.38317
G1 X47.141 Y50.524 E24.39483
G1 X46.956 Y50.764 E24.40647
G1 X46.839 Y51.044 E24.41812
G1 X46.799 Y51.345 E24.42979
G1 X46.799 Y60.303 E24.77392
G1 X46.836 Y60.593 E24.78515
G1 X46.95 Y60.874 E24.7968
G1 X47.133 Y61.116 E24.80845
G1 X47.373 Y61.301 E24.82009
G1 X47.653 Y61.418 E24.83175
G1 X47.954 Y61.458 E24.84341
;;retract;;
G1 F1500 E24.28341
G1 F2400 X49.816 Y62.187 E24.05541
G1 F1500 E24.04341
G0 F4800 X47.954 Y61.458
G0 X67.301 Y70.956
G0 X75.875 Y73.303
;;retract;;
G1 F1500 E24.28341
G1 F2400 X74.08 Y72.422 E24.05541
G1 F1500 E24.04341
G0 F4800 X75.875 Y73.303
G0 X77.301 Y70.956
G0 X77.954 Y70.599
G1 F1500 E24.84341
G1 X77.954 Y89.303 E25.56194
G1 X77.723 Y89.303 E25.57081
G1 X77.723 Y110.37 E26.38011
G1 X77.857 Y110.534 E26.38824
G1 X80.954 Y110.534 E26.50722
G1 X80.954 Y110.303 E26.51609
G1 X96.912 Y110.303 E27.12913
G1 X96.912 Y107.345 E27.24276
G1 X96.412 Y107.345 E27.26197
G1 X96.412 Y101.345 E27.49246
G1 X87.208 Y101.345 E27.84603
G1 X86.912 Y101.049 E27.86212
G1 X86.912 Y97.345 E28.00441
G1 X86.412 Y97.345 E28.02361
G1 X86.412 Y60.303 E29.4466
G1 X86.912 Y60.303 E29.46581
G1 X86.912 Y51.345 E29.80993
G1 X69.454 Y51.345 E30.48059
G1 X69.454 Y54.845 E30.61504
G1 X50.454 Y54.845 E31.34494
G1 X50.454 Y59.803 E31.5354
G1 X69.454 Y59.803 E32.26529
G1 X69.454 Y68.845 E32.61265
G1 X67.954 Y68.845 E32.67027
G1 X67.954 Y70.303 E32.72628
G1 X77.658 Y70.303 E33.09906
G1 X77.954 Y70.599 E33.11514
;;retract;;
G1 F1500 E32.55514
G1 F2400 X77.93 Y72.598 E32.32714
G1 F1500 E32.31514
G0 F4800 X77.301 Y70.956
G0 X75.875 Y73.303
G1 F1500 E33.11514
G1 X75.875 Y110.303 E34.53652
G1 X75.915 Y110.71 E34.55223
G1 X76.034 Y111.1 E34.56789
G1 X76.226 Y111.459 E34.58353
G1 X76.485 Y111.774 E34.5992
G1 X76.8 Y112.032 E34.61484
G1 X77.159 Y112.224 E34.63048
G1 X77.549 Y112.342 E34.64613
G1 X77.954 Y112.382 E34.66176
G1 X96.912 Y112.382 E35.39005
G1 X97.319 Y112.342 E35.40576
G1 X97.709 Y112.223 E35.42142
G1 X98.068 Y112.031 E35.43706
G1 X98.383 Y111.772 E35.45273
G1 X98.641 Y111.457 E35.46837
G1 X98.833 Y111.098 E35.48401
G1 X98.922 Y110.803 E35.49584
G1 X98.439 Y110.803 E35.5144
G1 X98.371 Y110.999 E35.52237
G1 X98.182 Y111.304 E35.53615
G1 X97.93 Y111.56 E35.54995
G1 X97.627 Y111.753 E35.56375
G1 X97.289 Y111.875 E35.57756
G1 X96.912 Y111.92 E35.59214
G1 X77.954 Y111.92 E36.32042
G1 X77.597 Y111.88 E36.33422
G1 X77.258 Y111.762 E36.34801
G1 X76.953 Y111.573 E36.3618
G1 X76.697 Y111.321 E36.3756
G1 X76.504 Y111.018 E36.3894
G1 X76.382 Y110.68 E36.4032
G1 X76.337 Y110.303 E36.41779
G1 X76.337 Y89.303 E37.22451
G1 X75.954 Y89.303 E37.23922
G1 X75.954 Y73.324 E37.85306
G1 X75.875 Y73.303 E37.8562
;;retract;;
G1 F1500 E37.2962
G1 F2400 X75.877 Y75.303 E37.0682
G1 F1500 E37.0562
G0 F4800 X75.875 Y73.303
G0 X67.301 Y70.956
G0 X47.301 Y60.956
G0 X47.301 Y50.692
G0 X87.565 Y50.692
G0 X87.577 Y60.303
G0 X86.912 Y60.303
G1 F1500 E37.8562
G1 X86.912 Y97.345 E39.27919
G1 X87.143 Y97.345 E39.28806
G1 X87.143 Y60.303 E40.71105
G1 X86.912 Y60.303 E40.71992
G0 F4800 X88.529 Y60.303
G1 F1500 X88.529 Y97.345 E42.14291
G1 X88.991 Y97.345 E42.16066
G1 X88.991 Y60.303 E43.58364
G1 X88.529 Y60.303 E43.60139
;;retract;;
G1 F1500 E43.04139
G1 F2400 X88.553 Y62.302 E42.81339
G1 F1500 E42.80139
G0 F4800 X88.529 Y60.303
G0 X97.565 Y100.692
G0 X97.565 Y110.956
G0 X77.301 Y110.956
G0 X77.289 Y89.303
G0 X80.954 Y89.303
G1 F1500 E43.60139
G1 X77.954 Y89.303 E43.71664
G1 X77.954 Y110.303 E44.52336
G1 X80.954 Y110.303 E44.63861
G1 X80.954 Y89.303 E45.44533
;;retract;;
G1 F1500 E44.88533
G1 F2400 X80.672 Y91.282 E44.65733
G1 F1500 E44.64533
G0 F4800 X77.289 Y89.303
G0 X77.261 Y89.303
G1 F1500 E45.44533
G1 X76.799 Y89.303 E45.46308
G1 X76.799 Y110.303 E46.2698
G1 X76.836 Y110.593 E46.28103
G1 X76.95 Y110.874 E46.29268
G1 X77.133 Y111.116 E46.30434
G1 X77.373 Y111.301 E46.31598
G1 X77.653 Y111.418 E46.32764
G1 X77.954 Y111.458 E46.3393
G1 X96.912 Y111.458 E47.06758
G1 X97.202 Y111.421 E47.07881
G1 X97.483 Y111.307 E47.09046
G1 X97.725 Y111.124 E47.10212
G1 X97.972 Y110.803 E47.11768
G1 X97.378 Y110.803 E47.1405
G1 X97.274 Y110.894 E47.1458
G1 X97.02 Y110.996 E47.15632
G1 X77.954 Y110.996 E47.88875
G1 X77.518 Y110.842 E47.90651
G1 X77.363 Y110.665 E47.91555
G1 X77.261 Y110.411 E47.92606
G1 X77.261 Y89.303 E48.73694
;;retract;;
G1 F1500 E48.17694
G1 F2400 X77.218 Y91.302 E47.94894
G1 F1500 E47.93694
G0 F4800 X77.261 Y89.303
G0 X58.991 Y90.303
G1 F1500 E48.73694
G1 X58.991 Y73.303 E49.39
G1 X58.529 Y73.303 E49.40775
G1 X58.529 Y90.303 E50.06081
G1 X58.489 Y90.66 E50.07461
G1 X58.371 Y90.999 E50.0884
G1 X58.182 Y91.304 E50.10219
G1 X57.93 Y91.56 E50.11598
G1 X57.627 Y91.753 E50.12979
G1 X57.289 Y91.875 E50.14359
G1 X56.912 Y91.92 E50.15818
G1 X47.954 Y91.92 E50.5023
G1 X47.597 Y91.88 E50.5161
G1 X47.258 Y91.762 E50.52989
G1 X46.953 Y91.573 E50.54367
G1 X46.697 Y91.321 E50.55747
G1 X46.504 Y91.018 E50.57127
G1 X46.382 Y90.68 E50.58508
G1 X46.337 Y90.303 E50.59966
G1 X46.337 Y71.345 E51.32794
G1 X46.377 Y70.988 E51.34174
G1 X46.495 Y70.649 E51.35553
G1 X46.684 Y70.344 E51.36932
G1 X46.936 Y70.088 E51.38312
G1 X47.239 Y69.895 E51.39692
G1 X47.454 Y69.817 E51.4057
G1 X47.454 Y69.334 E51.42426
G1 X47.157 Y69.425 E51.43619
G1 X46.798 Y69.617 E51.45183
G1 X46.483 Y69.876 E51.4675
G1 X46.225 Y70.191 E51.48314
G1 X46.033 Y70.55 E51.49878
G1 X45.915 Y70.94 E51.51443
G1 X45.875 Y71.345 E51.53007
G1 X45.875 Y90.303 E52.25835
G1 X45.915 Y90.71 E52.27406
G1 X46.034 Y91.1 E52.28972
G1 X46.226 Y91.459 E52.30536
G1 X46.485 Y91.774 E52.32103
G1 X46.8 Y92.032 E52.33667
G1 X47.159 Y92.224 E52.35231
G1 X47.549 Y92.342 E52.36796
G1 X47.954 Y92.382 E52.38359
G1 X56.912 Y92.382 E52.72772
G1 X57.319 Y92.342 E52.74343
G1 X57.709 Y92.223 E52.75909
G1 X58.068 Y92.031 E52.77473
G1 X58.383 Y91.772 E52.7904
G1 X58.641 Y91.457 E52.80604
G1 X58.833 Y91.098 E52.82168
G1 X58.951 Y90.708 E52.83733
G1 X58.991 Y90.303 E52.85297
;;retract;;
G1 F1500 E52.29297
G1 F2400 X58.937 Y88.304 E52.06497
G1 F1500 E52.05297
G0 F4800 X58.991 Y90.303
G0 X67.301 Y60.956
G0 X47.301 Y60.956
G0 X47.301 Y50.692
G0 X87.565 Y50.692
G0 X87.605 Y60.303
G1 F1500 E52.85297
G1 X87.605 Y97.345 E54.27595
G1 X88.067 Y97.345 E54.2937
G1 X88.067 Y60.303 E55.71669
G1 X87.605 Y60.303 E55.73443
;;retract;;
G1 F1500 E55.17443
G1 F2400 X87.629 Y62.302 E54.94643
G1 F1500 E54.93443
G0 F4800 X87.605 Y60.303
G0 X96.412 Y100.68
G0 X96.412 Y101.114
G1 F1500 E55.73443
G1 X96.412 Y101.345 E55.74331
G1 X96.912 Y101.345 E55.76252
G1 X96.912 Y107.345 E55.99301
G1 X97.143 Y107.345 E56.00188
G1 X97.143 Y101.278 E56.23495
G1 X97.009 Y101.114 E56.24308
G1 X96.412 Y101.114 E56.26602
G0 F4800 X98.464 Y100.803
G1 F1500 X98.529 Y101.345 E56.28699
G1 X98.529 Y107.345 E56.51748
G1 X98.991 Y107.345 E56.53523
G1 X98.991 Y101.345 E56.76572
G1 X98.938 Y100.803 E56.78664
G1 X98.464 Y100.803 E56.80485
G0 F4800 X97.343 Y100.803
G1 F1500 X97.503 Y100.983 E56.8141
G1 X97.605 Y101.237 E56.82462
G1 X97.605 Y107.345 E57.05926
G1 X98.067 Y107.345 E57.07701
G1 X98.067 Y101.345 E57.3075
G1 X98.03 Y101.055 E57.31873
G1 X97.928 Y100.803 E57.32918
G1 X97.343 Y100.803 E57.35165
;;retract;;
G1 F1500 E56.79165
G1 F2400 X97.605 Y101.237 E56.73396
G1 X97.605 Y102.731 E56.56365
G1 F1500 E56.55165
G0 F4800 X96.872 Y101.385
;TYPE:SUPPORT
G1 F1500 E57.35165
G1 F3465 X96.872 Y106.885 E57.43945
;;retract;;
G1 F1500 E56.87945
G1 F1500 E56.63945
G0 F4800 X97.577 Y106.885
G0 X97.565 Y100.692
G0 X87.577 Y96.885
G0 X86.872 Y96.885
G1 F1500 E57.43945
G1 F3465 X86.872 Y60.763 E58.01614
;;retract;;
G1 F1500 E57.45614
G1 F1500 E57.21614
G0 F4800 X87.577 Y60.763
G0 X97.565 Y100.692
G0 X97.565 Y110.956
G0 X77.301 Y110.956
G0 X77.289 Y89.874
G0 X80.383 Y89.874
G1 F1500 E58.01614
