;FLAVOR:Marlin
;TIME:50.1424
;Filament used:0.0262294m
;Layer height:0.2
;MINX:103.361
;MINY:103.527
;MINZ:0.2
;MAXX:116.628
;MAXY:116.455
;MAXZ:1
;OuterWall Time:13.6629
;InnerWall Time:9.30417
;Skin Time:12.5247
;Support Time:0
;SkirtBrim Time:7.56131
;Infill Time:0
;Support Infills Time:0
;Combing Time:1.46626
;Retraction Time:5.62306
;PrimeTower Time:0
;;;;;;;;;;;;;;;;;;;;;;;;;;;;;;;;;;;;;;;;;;;;;;;;;;;;;;;;;;;;;;;;;;;;;;;;;;;;
;Creality Print GCode Generated by CXEngine
;CRSLICE_GIT_HASH:d90fa71
;Creality Print Version : V4.3.8.6674
;CXEngine Release Time:2023-10-16 18:06:53
;Gcode Generated Time:2024-11-26 20:17:53
;----------Machine Config--------------
;Machine Name:Ender-3 V3 SE
;Machine Height:250
;Machine Width:220
;Machine Depth:220
;Material Type:PLA
;Material Name:CR-PLA_1.75
;Number of Extruders:1
;ExtruderParams[0] Nozzle Diameter:1000
;----------Profile Config---------------
;Wall Thickness:0.8
;Top/Bottom Thickness:0.8
;Out Wall Line Width:0.42
;Inner Wall Line Width:0.45
;Inital Height:200
;Wall Line Count:2
;Infill Line Distance:8
;Infill Pattern:grid
;Infill Sparse Density:10
;Infill Wipe Distance:0
;Print Temperature:190
;Bed Temperature:60
;Support Enable:false
;Support Density:15
;Support Angle:60
;Adhesion Type:autobrim
;machine is belt:false
;machine belt offset:10
;machine belt offset Y:0
;Raft Base Line Spacing:1.6
;Wait Heatup Sync:true
;Enable Ironing:false
;Material Type:PLA
;Max volumetric speed:20
;Material Diameter:1.75
;Material Density:1.24
;Filament Cost:20
;Filament Weight:1000
;Preview Img Type:png
;Screen Size:Sermoon D3
;----------Shell Config----------------
;Outer Wall Wipe Distance:200
;Outer Inset First:false
;Infill Before Walls:false
;Infill Overlap:0.04
;Fill Gaps Between Walls:everywhere
;Minimum Infill Area:15
;Top Surface Skin Layer:0
;Top Layers:4
;Z Seam Alignment:sharpest_corner
;Seam Corner Preference:z_seam_corner_inner
;Z Seam X:110
;Z Seam Y:220
;Horizontal Expansion:0
;Top/Bottom Pattern:zigzag
;Ironing Pattern:zigzag
;Vase Model:false
;----------Support Config----------------
;Support Type:everywhere
;Support Pattern:zigzag
;Support Infill Layer Thickness:0.15
;Minimum Support Area:1
;Enable Support Roof:true
;Support Roof Thickness:0.8
;Support Roof Pattern:lines
;Connect Support Lines:0
;Connect Support ZigZags:1
;Minimum Support X/Y Distance:0.2
;Support Line Distance:2.67
; ---------PrintSpeed & Travel----------
;Enable Print Cool:true
;Avoid Printed Parts Traveling:true
;Enable Retraction:true
;Retraction Distance:0.8
;Retraction Speed:25
;Retraction Prime Speed:25
;Maximum Retraction Count:100
;Minimum Extrusion Distance Window:0.8
;Z Hop When Retracted:false
;Z Hop Height:0.2
;Retract Before Outer Wall:true

;Outer Wall Speed:60
;Inner Wall Speed:90
;Infill Speed:180
;Top/Bottom Speed:50
;Travel Speed:150
;Initial Layer Speed:30
;Skirt/Brim Speed:25
;Prime Tower Speed:60
;Outer Wall Acceleration:1000
;Inner Wall Acceleration:2000
;Infill Acceleration:2500
;Top/Bottom Acceleration:2500
;Travel Acceleration:2500
;Initial Layer Print Acceleration:500
;Initial Layer Travel Acceleration:500
;Skirt/Brim Acceleration:500
;Combing Mode:no_outer_surfaces
; --------SpecialModel&Mesh Fixes--------
;Union Overlapping Volum:true
;Remove All Holes:false
;Maximum Travel Resolution:0.25
;Maximum Deviation:0.05
;Maximum Model Angle:0.872665
;IS Mold Print:false
;Make Overhang Printable:false
;Enable Coasting:false
;Coasting Volumes:0.064
;Coasting Speed:0.9
;Raft AirGap:0.25
;Layer0 ZOverLap:0.13
;Adaptive Layers:0
;---------------------End of Head--------------------------
M140 S60
M105
M190 S60
M104 S190
M82 ;absolute extrusion mode
M220 S100 ;Reset Feedrate
M221 S100 ;Reset Flowrate

G28 ;Home

G92 E0 ;Reset Extruder
G1 Z2.0 F3000 ;Move Z Axis up
G1 X-2.1 Y20 Z0.28 F5000.0 ;Move to start position
M109 S190.000000
G1 X-2.1 Y145.0 Z0.28 F1500.0 E15 ;Draw the first line
G1 X-2.4 Y145.0 Z0.28 F5000.0 ;Move to side a little
G1 X-2.4 Y20 Z0.28 F1500.0 E30 ;Draw the second line
G92 E0  ;Reset Extruder
G1 E-1.0000 F1800 ;Retract a bit
G1 Z2.0 F3000 ;Move Z Axis up
G1 E0.0000 F1800 

G92 E0
G92 E0
G1 F1500 E-0.8
;LAYER_COUNT:5

;LAYER:0
M106 S0
M204 S500
G0 F4800 X106.032 Y105.436 Z0.2
;TYPE:SKIRT
G1 F1500 E0
G1 X105.27 Y106.198 E0.0414
G1 X104.653 Y107.078 E0.08268
G1 X104.198 Y108.054 E0.12405
G1 X103.92 Y109.093 E0.16537
G1 X103.826 Y110.168 E0.20682
G1 X103.92 Y111.239 E0.24813
G1 X104.198 Y112.278 E0.28944
G1 X104.653 Y113.254 E0.33081
G1 X105.27 Y114.134 E0.3721
G1 X106.032 Y114.896 E0.4135
G1 X106.912 Y115.513 E0.45478
G1 X107.943 Y115.993 E0.49847
G1 X108.369 Y115.98 E0.51484
G1 X108.703 Y115.694 E0.53174
G1 X109.599 Y113.233 E0.63235
G1 X109.65 Y112.801 E0.64906
G1 X109.386 Y112.435 E0.66639
G1 X108.837 Y112.18 E0.68965
G1 X108.505 Y111.947 E0.70523
G1 X108.219 Y111.661 E0.72077
G1 X107.986 Y111.329 E0.73635
G1 X107.815 Y110.961 E0.75194
G1 X107.71 Y110.568 E0.76756
G1 X107.674 Y110.164 E0.78314
G1 X107.71 Y109.764 E0.79857
G1 X107.815 Y109.371 E0.8142
G1 X107.986 Y109.004 E0.82975
G1 X108.22 Y108.669 E0.84545
G1 X108.504 Y108.385 E0.86088
G1 X108.837 Y108.152 E0.87649
G1 X109.204 Y107.981 E0.89205
G1 X109.6 Y107.875 E0.9078
G1 X110 Y107.84 E0.92322
G1 X110.4 Y107.875 E0.93864
G1 X110.796 Y107.981 E0.95439
G1 X111.163 Y108.152 E0.96995
G1 X111.496 Y108.385 E0.98556
G1 X111.78 Y108.669 E1.00099
G1 X112.014 Y109.004 E1.01669
G1 X112.185 Y109.371 E1.03224
G1 X112.29 Y109.764 E1.04787
G1 X112.329 Y110.206 E1.06491
G1 X112.465 Y110.618 E1.08158
G1 X112.86 Y110.838 E1.09895
G1 X115.618 Y110.838 E1.2049
G1 X116.001 Y110.647 E1.22134
G1 X116.181 Y110.244 E1.2383
G1 X116.08 Y109.093 E1.28268
G1 X115.802 Y108.054 E1.324
G1 X115.347 Y107.078 E1.36537
G1 X114.73 Y106.198 E1.40665
G1 X113.968 Y105.436 E1.44805
G1 X113.088 Y104.819 E1.48934
G1 X112.111 Y104.364 E1.53074
G1 X111.075 Y104.085 E1.57196
G1 X110 Y103.992 E1.61341
G1 X108.925 Y104.085 E1.65486
G1 X107.889 Y104.364 E1.69608
G1 X106.912 Y104.819 E1.73748
G1 X106.032 Y105.436 E1.77876
G0 F4800 X106.48 Y105.968
G1 F1500 X105.802 Y106.646 E1.8156
G1 X105.256 Y107.425 E1.85214
G1 X104.851 Y108.294 E1.88897
G1 X104.605 Y109.213 E1.92552
G1 X104.521 Y110.168 E1.96235
G1 X104.605 Y111.119 E1.99902
G1 X104.851 Y112.038 E2.03557
G1 X105.256 Y112.907 E2.0724
G1 X105.802 Y113.686 E2.10895
G1 X106.48 Y114.364 E2.14578
G1 X107.259 Y114.91 E2.18232
G1 X108.107 Y115.305 E2.21826
G1 X108.948 Y112.996 E2.31266
G1 X108.488 Y112.781 E2.33217
G1 X108.057 Y112.479 E2.35239
G1 X107.685 Y112.106 E2.37262
G1 X107.383 Y111.675 E2.39284
G1 X107.161 Y111.197 E2.41309
G1 X107.025 Y110.689 E2.43329
G1 X106.979 Y110.164 E2.45353
G1 X107.026 Y109.64 E2.47374
G1 X107.162 Y109.131 E2.49398
G1 X107.385 Y108.654 E2.51421
G1 X107.687 Y108.222 E2.53446
G1 X108.06 Y107.851 E2.55467
G1 X108.491 Y107.549 E2.57489
G1 X108.969 Y107.327 E2.59513
G1 X109.477 Y107.19 E2.61535
G1 X110.002 Y107.145 E2.63559
G1 X110.526 Y107.191 E2.6558
G1 X111.035 Y107.328 E2.67604
G1 X111.512 Y107.551 E2.69627
G1 X111.943 Y107.853 E2.71649
G1 X112.315 Y108.225 E2.7367
G1 X112.617 Y108.657 E2.75695
G1 X112.839 Y109.135 E2.77719
G1 X112.975 Y109.643 E2.7974
G1 X113.019 Y110.145 E2.81676
G1 X115.477 Y110.145 E2.91118
G1 X115.395 Y109.213 E2.94712
G1 X115.149 Y108.294 E2.98367
G1 X114.744 Y107.425 E3.0205
G1 X114.198 Y106.646 E3.05704
G1 X113.52 Y105.968 E3.09388
G1 X112.741 Y105.422 E3.13042
G1 X111.872 Y105.017 E3.16725
G1 X110.953 Y104.77 E3.20381
G1 X110 Y104.687 E3.24056
G1 X109.047 Y104.77 E3.27731
G1 X108.128 Y105.017 E3.31386
G1 X107.259 Y105.422 E3.35069
G1 X106.48 Y105.968 E3.38724
G0 F4800 X106.347 Y105.779
G1 F1500 X105.613 Y106.513 E3.42711
G1 X105.067 Y107.292 E3.46366
G1 X104.628 Y108.234 E3.50358
G1 X104.375 Y109.193 E3.54168
G1 X104.291 Y110.188 E3.58004
G1 X104.382 Y111.179 E3.61827
G1 X104.628 Y112.098 E3.65482
G1 X105.067 Y113.04 E3.69474
G1 X105.613 Y113.819 E3.73129
G1 X106.347 Y114.553 E3.77116
G1 X107.126 Y115.099 E3.80771
G1 X108.081 Y115.548 E3.84825
G1 X108.291 Y115.476 E3.85678
G1 X109.183 Y113.024 E3.95701
G1 X109.134 Y112.828 E3.96477
G1 X108.608 Y112.583 E3.98706
G1 X108.203 Y112.299 E4.00606
G1 X107.867 Y111.963 E4.02432
G1 X107.583 Y111.558 E4.04332
G1 X107.38 Y111.123 E4.06176
G1 X107.253 Y110.647 E4.08069
G1 X107.211 Y110.165 E4.09927
G1 X107.253 Y109.685 E4.11778
G1 X107.38 Y109.209 E4.13671
G1 X107.585 Y108.771 E4.15529
G1 X107.862 Y108.374 E4.17388
G1 X108.206 Y108.031 E4.19254
G1 X108.608 Y107.749 E4.21141
G1 X109.043 Y107.546 E4.22985
G1 X109.519 Y107.418 E4.24878
G1 X110 Y107.377 E4.26733
G1 X110.481 Y107.418 E4.28587
G1 X110.957 Y107.546 E4.30481
G1 X111.392 Y107.749 E4.32325
G1 X111.794 Y108.031 E4.34211
G1 X112.138 Y108.374 E4.36078
G1 X112.415 Y108.771 E4.37937
G1 X112.62 Y109.209 E4.39795
G1 X112.747 Y109.685 E4.41688
G1 X112.794 Y110.219 E4.43747
G1 X112.922 Y110.376 E4.44525
G1 X115.556 Y110.376 E4.54644
G1 X115.715 Y110.22 E4.55499
G1 X115.625 Y109.193 E4.5946
G1 X115.372 Y108.234 E4.6327
G1 X114.933 Y107.292 E4.67262
G1 X114.387 Y106.513 E4.70917
G1 X113.653 Y105.779 E4.74904
G1 X112.874 Y105.233 E4.78559
G1 X111.932 Y104.794 E4.82551
G1 X111.013 Y104.547 E4.86207
G1 X110.02 Y104.457 E4.90037
G1 X108.987 Y104.547 E4.9402
G1 X108.068 Y104.794 E4.97676
G1 X107.126 Y105.233 E5.01669
G1 X106.347 Y105.779 E5.05323
G0 F4800 X105.733 Y105.081
G1 F1500 X104.915 Y105.899 E5.09767
G1 X104.252 Y106.845 E5.14205
G1 X103.761 Y107.899 E5.18671
G1 X103.463 Y109.012 E5.23098
G1 X103.361 Y110.169 E5.2756
G1 X103.463 Y111.32 E5.31999
G1 X103.761 Y112.433 E5.36425
G1 X104.252 Y113.487 E5.40892
G1 X104.915 Y114.433 E5.45329
G1 X105.733 Y115.251 E5.49773
G1 X106.679 Y115.914 E5.54211
G1 X107.619 Y116.352 E5.58195
G1 X107.997 Y116.455 E5.597
G1 X108.3 Y116.444 E5.60865
G1 X108.59 Y116.354 E5.62031
G1 X108.846 Y116.192 E5.63195
G1 X109.052 Y115.969 E5.64361
G1 X109.192 Y115.7 E5.65526
G1 X110.081 Y113.258 E5.7551
G1 X110.099 Y112.902 E5.76879
G1 X110.035 Y112.606 E5.78042
G1 X109.896 Y112.336 E5.79209
G1 X109.692 Y112.112 E5.80373
G1 X109.436 Y111.949 E5.81539
G1 X109.071 Y111.779 E5.83085
G1 X108.803 Y111.591 E5.84343
G1 X108.575 Y111.363 E5.85582
G1 X108.387 Y111.095 E5.86839
G1 X108.252 Y110.805 E5.88068
G1 X108.167 Y110.489 E5.89325
G1 X108.139 Y110.164 E5.90578
G1 X108.167 Y109.843 E5.91816
G1 X108.252 Y109.527 E5.93073
G1 X108.387 Y109.238 E5.94299
G1 X108.576 Y108.967 E5.95568
G1 X108.803 Y108.741 E5.96798
G1 X109.071 Y108.553 E5.98056
G1 X109.364 Y108.416 E5.99298
G1 X109.676 Y108.332 E6.0054
G1 X110 Y108.304 E6.01789
G1 X110.324 Y108.332 E6.03038
G1 X110.636 Y108.416 E6.04279
G1 X110.929 Y108.553 E6.05522
G1 X111.197 Y108.741 E6.0678
G1 X111.424 Y108.967 E6.0801
G1 X111.613 Y109.238 E6.09279
G1 X111.748 Y109.527 E6.10505
G1 X111.833 Y109.843 E6.11762
G1 X111.88 Y110.383 E6.13844
G1 X112.015 Y110.716 E6.15224
G1 X112.198 Y110.958 E6.1639
G1 X112.438 Y111.143 E6.17554
G1 X112.718 Y111.26 E6.1872
G1 X113.019 Y111.3 E6.19886
G1 X115.477 Y111.3 E6.29329
G1 X115.864 Y111.233 E6.30838
G1 X116.134 Y111.095 E6.32002
G1 X116.359 Y110.891 E6.33169
G1 X116.522 Y110.636 E6.34332
G1 X116.614 Y110.347 E6.35497
G1 X116.628 Y110.044 E6.36662
G1 X116.537 Y109.012 E6.40642
G1 X116.239 Y107.899 E6.45068
G1 X115.748 Y106.845 E6.49535
G1 X115.085 Y105.899 E6.53973
G1 X114.267 Y105.081 E6.58417
G1 X113.321 Y104.418 E6.62855
G1 X112.271 Y103.929 E6.67304
G1 X111.151 Y103.628 E6.71759
G1 X110 Y103.527 E6.76198
G1 X108.849 Y103.628 E6.80637
G1 X107.729 Y103.929 E6.85092
G1 X106.679 Y104.418 E6.89541
G1 X105.733 Y105.081 E6.93979
;;retract;;
G1 F1500 E6.37979
G1 F2400 X104.447 Y106.612 E6.15179
G1 F1500 E6.13979
;MESH:0_0
G0 F4800 X105.733 Y105.081
G0 X106.132 Y106.923
G0 X105.501 Y109.511
G0 X105.454 Y110.302
G0 X105.547 Y111.087
G0 X105.775 Y111.848
G0 X106.127 Y112.549
G0 X106.605 Y113.191
G0 X107.268 Y113.795
G0 X107.587 Y114.002
G0 X107.804 Y113.433
G0 X106.378 Y111.546
G1 F1500 E6.93979
G0 F4800 X106.943 Y111.279
;TYPE:WALL-OUTER
G1 F1800 X107.181 Y111.788 E6.96094
G1 X107.509 Y112.257 E6.98249
G1 X107.909 Y112.656 E7.00376
G1 X108.357 Y112.972 E7.0244
G1 X108.658 Y113.116 E7.03696
G1 X107.975 Y114.989 E7.11202
G1 X107.377 Y114.711 E7.13684
G1 X106.626 Y114.184 E7.17138
G1 X105.983 Y113.54 E7.20564
G1 X105.455 Y112.787 E7.24027
G1 X105.068 Y111.955 E7.27481
G1 X104.834 Y111.083 E7.3088
G1 X104.753 Y110.172 E7.34323
G1 X104.834 Y109.249 E7.37812
G1 X105.068 Y108.377 E7.41211
G1 X105.455 Y107.545 E7.44665
G1 X105.983 Y106.792 E7.48127
G1 X106.626 Y106.149 E7.51551
G1 X107.379 Y105.621 E7.55013
G1 X108.211 Y105.234 E7.58468
G1 X109.083 Y104.999 E7.61867
G1 X110 Y104.919 E7.65333
G1 X110.917 Y104.999 E7.68798
G1 X111.789 Y105.234 E7.72198
G1 X112.621 Y105.621 E7.75653
G1 X113.374 Y106.149 E7.79115
G1 X114.017 Y106.792 E7.82538
G1 X114.545 Y107.545 E7.86001
G1 X114.932 Y108.377 E7.89455
G1 X115.166 Y109.249 E7.92854
G1 X115.17 Y109.298 E7.93039
G1 X115.225 Y109.914 E7.95368
G1 X113.231 Y109.914 E8.02874
G1 X113.205 Y109.622 E8.03978
G1 X113.057 Y109.053 E8.06191
G1 X112.819 Y108.544 E8.08307
G1 X112.491 Y108.074 E8.10464
G1 X112.091 Y107.676 E8.12589
G1 X111.622 Y107.347 E8.14746
G1 X111.113 Y107.109 E8.16861
G1 X110.54 Y106.96 E8.1909
G1 X110 Y106.914 E8.2113
G1 X109.457 Y106.96 E8.23182
G1 X108.887 Y107.109 E8.254
G1 X108.378 Y107.347 E8.27515
G1 X107.909 Y107.675 E8.2967
G1 X107.51 Y108.074 E8.31794
G1 X107.181 Y108.544 E8.33954
G1 X106.943 Y109.053 E8.36069
G1 X106.795 Y109.622 E8.38283
G1 X106.748 Y110.17 E8.40353
G1 X106.794 Y110.711 E8.42397
G1 X106.943 Y111.279 E8.44608
G0 F4800 X107.027 Y111.46
G0 X106.493 Y111.44
;TYPE:WALL-INNER
G1 F1800 X106.767 Y112.028 E8.47278
G1 X107.143 Y112.565 E8.49976
G1 X107.602 Y113.023 E8.52645
G1 X108.063 Y113.35 E8.54971
G1 X107.699 Y114.35 E8.59352
G1 X106.935 Y113.816 E8.63188
G1 X106.351 Y113.231 E8.6659
G1 X105.871 Y112.547 E8.7003
G1 X105.519 Y111.791 E8.73462
G1 X105.307 Y110.999 E8.76837
G1 X105.233 Y110.172 E8.80254
G1 X105.308 Y109.333 E8.83721
G1 X105.519 Y108.541 E8.87095
G1 X105.871 Y107.785 E8.90527
G1 X106.351 Y107.101 E8.93967
G1 X106.935 Y106.517 E8.97366
G1 X107.619 Y106.037 E9.00805
G1 X108.376 Y105.685 E9.04241
G1 X109.167 Y105.472 E9.07613
G1 X110 Y105.399 E9.11055
G1 X110.833 Y105.473 E9.14497
G1 X111.625 Y105.685 E9.17872
G1 X112.381 Y106.037 E9.21304
G1 X113.065 Y106.517 E9.24743
G1 X113.65 Y107.101 E9.28146
G1 X114.129 Y107.785 E9.31583
G1 X114.481 Y108.541 E9.35015
G1 X114.693 Y109.341 E9.38421
G1 X114.702 Y109.436 E9.38814
G1 X113.654 Y109.436 E9.43128
G1 X113.508 Y108.885 E9.45474
G1 X113.233 Y108.304 E9.48119
G1 X112.859 Y107.763 E9.50826
G1 X112.399 Y107.31 E9.53484
G1 X111.862 Y106.933 E9.56184
G1 X111.274 Y106.659 E9.58854
G1 X110.649 Y106.492 E9.61517
G1 X110 Y106.435 E9.64199
G1 X109.35 Y106.492 E9.66884
G1 X108.726 Y106.659 E9.69543
G1 X108.138 Y106.933 E9.72213
G1 X107.601 Y107.309 E9.74911
G1 X107.143 Y107.762 E9.77563
G1 X106.767 Y108.304 E9.80278
G1 X106.493 Y108.892 E9.82948
G1 X106.324 Y109.516 E9.85609
G1 X106.266 Y110.171 E9.88315
G1 X106.326 Y110.817 E9.90985
G1 X106.493 Y111.44 E9.9364
;;retract;;
G1 F1500 E9.3764
G1 F2400 X107.143 Y112.565 E9.22832
G1 X107.602 Y113.023 E9.15444
G1 X107.645 Y113.053 E9.1484
G1 F1500 E9.1364
G0 F4800 X106.296 Y111.489
G0 X106.954 Y112.533
G0 X107.656 Y113.246
G1 F1500 E9.9364
G0 F4800 X107.445 Y113.544
;TYPE:SKIN
G1 F1800 X107.265 Y113.416 E9.94489
G1 X106.761 Y112.915 E9.97219
G1 X106.319 Y112.287 E10.00169
G1 X106.006 Y111.611 E10.03031
G1 X105.816 Y110.91 E10.05821
G1 X105.754 Y110.15 E10.0875
G1 X105.818 Y109.425 E10.11546
G1 X106.003 Y108.72 E10.14346
G1 X106.319 Y108.047 E10.17202
G1 X106.762 Y107.417 E10.20161
G1 X107.27 Y106.91 E10.22918
G1 X107.879 Y106.486 E10.25768
G1 X108.573 Y106.166 E10.28704
G1 X109.256 Y105.984 E10.3142
G1 X109.975 Y105.92 E10.34193
G1 X110.746 Y105.985 E10.37165
G1 X111.434 Y106.166 E10.39898
G1 X112.119 Y106.485 E10.42801
G1 X112.746 Y106.926 E10.45745
G1 X113.269 Y107.452 E10.48595
G1 X113.679 Y108.043 E10.51358
G1 X113.99 Y108.715 E10.54203
G1 X114.049 Y108.921 E10.55026
;;retract;;
