;FLAVOR:Marlin
;TIME:2558.78
;Filament used:3.5009m
;Layer height:0.2
;MINX:63.397
;MINY:71.24
;MINZ:0.2
;MAXX:156.282
;MAXY:147.864
;MAXZ:7
;OuterWall Time:423.342
;InnerWall Time:313.099
;Skin Time:932.991
;Support Time:63.4562
;SkirtBrim Time:91.7712
;Infill Time:128.426
;Support Infills Time:0
;Combing Time:205.246
;Retraction Time:188.833
;PrimeTower Time:211.613
;;;;;;;;;;;;;;;;;;;;;;;;;;;;;;;;;;;;;;;;;;;;;;;;;;;;;;;;;;;;;;;;
;Creality Print GCode Generated by CXEngine
;CRSLICE_GIT_HASH:d90fa71
;Creality Print Version : V4.3.8.6674
;CXEngine Release Time:2023-10-16 18:06:53
;Gcode Generated Time:2024-11-26 15:07:33
;----------Machine Config--------------
;Machine Name:Ender-3 V3 SE
;Machine Height:250
;Machine Width:220
;Machine Depth:220
;Material Type:PLA
;Material Name:CR-PLA_1.75
;Number of Extruders:1
;ExtruderParams[0] Nozzle Diameter:1000
;----------Profile Config---------------
;Wall Thickness:0.8
;Top/Bottom Thickness:0.8
;Out Wall Line Width:0.42
;Inner Wall Line Width:0.45
;Inital Height:200
;Wall Line Count:2
;Infill Line Distance:8
;Infill Pattern:grid
;Infill Sparse Density:10
;Infill Wipe Distance:0
;Print Temperature:190
;Bed Temperature:60
;Support Enable:false
;Support Density:15
;Support Angle:60
;Adhesion Type:autobrim
;machine is belt:false
;machine belt offset:10
;machine belt offset Y:0
;Raft Base Line Spacing:1.6
;Wait Heatup Sync:true
;Enable Ironing:false
;Material Type:PLA
;Max volumetric speed:20
;Material Diameter:1.75
;Material Density:1.24
;Filament Cost:20
;Filament Weight:1000
;Preview Img Type:png
;Screen Size:Sermoon D3
;----------Shell Config----------------
;Outer Wall Wipe Distance:200
;Outer Inset First:false
;Infill Before Walls:false
;Infill Overlap:0.04
;Fill Gaps Between Walls:everywhere
;Minimum Infill Area:15
;Top Surface Skin Layer:0
;Top Layers:4
;Z Seam Alignment:sharpest_corner
;Seam Corner Preference:z_seam_corner_inner
;Z Seam X:110
;Z Seam Y:220
;Horizontal Expansion:0
;Top/Bottom Pattern:zigzag
;Ironing Pattern:zigzag
;Vase Model:false
;----------Support Config----------------
;Support Type:everywhere
;Support Pattern:zigzag
;Support Infill Layer Thickness:0.15
;Minimum Support Area:1
;Enable Support Roof:true
;Support Roof Thickness:0.8
;Support Roof Pattern:lines
;Connect Support Lines:0
;Connect Support ZigZags:1
;Minimum Support X/Y Distance:0.2
;Support Line Distance:2.67
; ---------PrintSpeed & Travel----------
;Enable Print Cool:true
;Avoid Printed Parts Traveling:true
;Enable Retraction:true
;Retraction Distance:0.8
;Retraction Speed:25
;Retraction Prime Speed:25
;Maximum Retraction Count:100
;Minimum Extrusion Distance Window:0.8
;Z Hop When Retracted:false
;Z Hop Height:0.2
;Retract Before Outer Wall:true

;Outer Wall Speed:60
;Inner Wall Speed:90
;Infill Speed:180
;Top/Bottom Speed:50
;Travel Speed:150
;Initial Layer Speed:30
;Skirt/Brim Speed:25
;Prime Tower Speed:60
;Outer Wall Acceleration:1000
;Inner Wall Acceleration:2000
;Infill Acceleration:2500
;Top/Bottom Acceleration:2500
;Travel Acceleration:2500
;Initial Layer Print Acceleration:500
;Initial Layer Travel Acceleration:500
;Skirt/Brim Acceleration:500
;Combing Mode:no_outer_surfaces
; --------SpecialModel&Mesh Fixes--------
;Union Overlapping Volum:true
;Remove All Holes:false
;Maximum Travel Resolution:0.25
;Maximum Deviation:0.05
;Maximum Model Angle:0.872665
;IS Mold Print:false
;Make Overhang Printable:false
;Enable Coasting:false
;Coasting Volumes:0.064
;Coasting Speed:0.9
;Raft AirGap:0.25
;Layer0 ZOverLap:0.13
;Adaptive Layers:0
;---------------------End of Head--------------------------
M140 S60
M105
M190 S60
M104 S190
M82 ;absolute extrusion mode
M220 S100 ;Reset Feedrate
M221 S100 ;Reset Flowrate

G28 ;Home

G92 E0 ;Reset Extruder
G1 Z2.0 F3000 ;Move Z Axis up
G1 X-2.1 Y20 Z0.28 F5000.0 ;Move to start position
M109 S190.000000
G1 X-2.1 Y145.0 Z0.28 F1500.0 E15 ;Draw the first line
G1 X-2.4 Y145.0 Z0.28 F5000.0 ;Move to side a little
G1 X-2.4 Y20 Z0.28 F1500.0 E30 ;Draw the second line
G92 E0  ;Reset Extruder
G1 E-1.0000 F1800 ;Retract a bit
G1 Z2.0 F3000 ;Move Z Axis up
G1 E0.0000 F1800 

G92 E0
G92 E0
G1 F1500 E-0.8
;LAYER_COUNT:35

;LAYER:0
M106 S0
M204 S500
G0 F4800 X124.247 Y72.738 Z0.2
;;retract;;
G1 F1500 E-0.56
G1 F1500 E-0.8
G0 F4800 X124.58 Y77.709
G0 X125.014 Y77.709
;TYPE:SKIRT
G1 F1500 E0
G1 X125.014 Y79.021 E0.0504
G1 X125.245 Y78.885 E0.0607
G1 X125.245 Y78.157 E0.08867
G1 X125.014 Y77.709 E0.10803
;;retract;;
G1 F1500 E-0.45197
G1 F2400 X125.245 Y78.885 E-0.58854
G1 X125.245 Y78.157 E-0.67154
G1 X125.212 Y78.092 E-0.67997
G1 F1500 E-0.69197
G0 F4800 X124.58 Y77.709
G0 X124.592 Y72.666
G0 X134.856 Y72.666
G0 X134.896 Y78.252
G1 F1500 E0.10803
G1 X134.896 Y78.849 E0.13096
G1 X135.358 Y79.126 E0.15166
G1 X135.358 Y77.355 E0.21969
G1 X134.896 Y78.252 E0.25845
;;retract;;
G1 F1500 E-0.30155
G1 F2400 X135.358 Y79.126 E-0.41418
G1 X135.358 Y78.114 E-0.52955
G1 F1500 E-0.54155
G0 F4800 X134.896 Y78.252
G0 X134.856 Y72.666
G0 X124.592 Y72.666
G0 X124.247 Y72.738
G1 F1500 E0.25845
G1 X124.13 Y73.018 E0.27011
G1 X124.09 Y73.319 E0.28177
G1 X124.09 Y79.638 E0.52452
G1 X124.552 Y79.308 E0.54633
G1 X124.552 Y76.773 E0.64371
G1 X124.491 Y76.591 E0.65109
G1 X124.424 Y76.241 E0.66478
G1 X124.394 Y75.972 E0.67517
G1 X124.38 Y75.704 E0.68548
G1 X124.379 Y75.453 E0.69513
G1 X124.39 Y75.181 E0.70558
G1 X124.438 Y74.697 E0.72427
G1 X124.552 Y74.053 E0.74939
G1 X124.552 Y73.16 E0.7837
G1 X124.766 Y72.775 E0.80062
G1 X125.137 Y72.626 E0.81598
G1 X134.362 Y72.626 E1.17036
G1 X134.639 Y72.78 E1.18254
G1 X134.809 Y72.995 E1.19306
G1 X135.383 Y73.182 E1.21626
G1 X135.207 Y72.748 E1.23425
G1 X135.024 Y72.506 E1.2459
G1 X134.784 Y72.321 E1.25754
G1 X134.504 Y72.204 E1.2692
G1 X134.203 Y72.164 E1.28087
G1 X125.245 Y72.164 E1.62499
G1 X124.955 Y72.201 E1.63622
G1 X124.674 Y72.315 E1.64787
G1 X124.432 Y72.498 E1.65953
G1 X124.247 Y72.738 E1.67117
;;retract;;
G1 F1500 E1.11117
G1 F2400 X124.09 Y73.319 E1.04265
G1 X124.09 Y74.718 E0.88317
G1 F1500 E0.87117
G0 F4800 X124.247 Y72.738
G0 X95.589 Y77.563
G1 F1500 E1.67117
G1 X95.589 Y73.735 E1.81822
G1 X95.552 Y73.445 E1.82945
G1 X95.438 Y73.164 E1.8411
G1 X95.255 Y72.922 E1.85276
G1 X95.015 Y72.737 E1.8644
G1 X94.735 Y72.62 E1.87606
G1 X94.434 Y72.58 E1.88772
G1 X85.476 Y72.58 E2.23185
G1 X85.186 Y72.617 E2.24308
G1 X84.905 Y72.731 E2.25473
G1 X84.663 Y72.914 E2.26638
G1 X84.478 Y73.154 E2.27802
G1 X84.361 Y73.434 E2.28968
G1 X84.321 Y73.735 E2.30134
G1 X84.321 Y77.559 E2.44825
G1 X84.522 Y77.834 E2.46133
G1 X84.783 Y78.353 E2.48365
G1 X84.783 Y73.576 E2.66716
G1 X84.997 Y73.191 E2.68408
G1 X85.368 Y73.042 E2.69944
G1 X94.593 Y73.042 E3.05382
G1 X94.978 Y73.256 E3.07074
G1 X95.127 Y73.627 E3.0861
G1 X95.127 Y78.358 E3.26784
G1 X95.453 Y77.71 E3.29571
G1 X95.589 Y77.563 E3.3034
G0 F4800 X96.513 Y76.761
G1 F1500 X96.513 Y73.735 E3.41965
G1 X96.473 Y73.328 E3.43536
G1 X96.354 Y72.938 E3.45102
G1 X96.162 Y72.579 E3.46666
G1 X95.903 Y72.264 E3.48233
G1 X95.588 Y72.006 E3.49797
G1 X95.229 Y71.814 E3.51361
G1 X94.839 Y71.696 E3.52926
G1 X94.434 Y71.656 E3.5449
G1 X85.476 Y71.656 E3.88902
G1 X85.069 Y71.696 E3.90473
G1 X84.679 Y71.815 E3.9204
G1 X84.32 Y72.007 E3.93604
G1 X84.005 Y72.266 E3.9517
G1 X83.747 Y72.581 E3.96734
G1 X83.555 Y72.94 E3.98298
G1 X83.437 Y73.33 E3.99864
G1 X83.397 Y73.735 E4.01427
G1 X83.397 Y76.761 E4.13051
G1 X83.859 Y77.093 E4.15237
G1 X83.859 Y73.735 E4.28137
G1 X83.899 Y73.378 E4.29517
G1 X84.017 Y73.039 E4.30896
G1 X84.206 Y72.734 E4.32274
G1 X84.458 Y72.478 E4.33654
G1 X84.761 Y72.285 E4.35034
G1 X85.099 Y72.163 E4.36415
G1 X85.476 Y72.118 E4.37873
G1 X94.434 Y72.118 E4.72286
G1 X94.791 Y72.158 E4.73666
G1 X95.13 Y72.276 E4.75045
G1 X95.435 Y72.465 E4.76423
G1 X95.691 Y72.717 E4.77803
G1 X95.884 Y73.02 E4.79183
G1 X96.006 Y73.358 E4.80564
G1 X96.051 Y73.735 E4.82022
G1 X96.051 Y77.112 E4.94995
G1 X96.263 Y76.93 E4.96068
G1 X96.513 Y76.761 E4.97228
;;retract;;
G1 F1500 E4.41228
G1 F2400 X96.49 Y74.762 E4.18428
G1 F1500 E4.17228
G0 F4800 X96.513 Y76.761
G0 X95.087 Y133.346
G0 X85.087 Y143.346
G0 X74.823 Y143.346
G0 X73.397 Y125.285
G0 X74.321 Y127.441
G1 F1500 E4.97228
G1 X74.321 Y142.693 E5.55819
G1 X74.358 Y142.983 E5.56942
G1 X74.472 Y143.264 E5.58107
G1 X74.655 Y143.506 E5.59272
G1 X74.895 Y143.691 E5.60437
G1 X75.175 Y143.808 E5.61602
G1 X75.476 Y143.848 E5.62769
G1 X81.476 Y143.848 E5.85818
G1 X81.208 Y143.386 E5.8787
G1 X75.317 Y143.386 E6.105
G1 X74.932 Y143.172 E6.12192
G1 X74.783 Y142.801 E6.13728
G1 X74.783 Y128.519 E6.68593
G1 X74.321 Y127.441 E6.73099
;;retract;;
G1 F1500 E6.17099
G1 F2400 X74.325 Y129.441 E5.94299
G1 F1500 E5.93099
G0 F4800 X74.321 Y127.441
G0 X75.245 Y129.597
G1 F1500 E6.73099
G1 X75.245 Y142.76 E7.23665
G1 X75.379 Y142.924 E7.24479
G1 X80.969 Y142.924 E7.45953
G1 X80.86 Y142.693 E7.46934
G1 X84.434 Y142.693 E7.60664
G1 X84.434 Y132.989 E7.97942
G1 X84.73 Y132.693 E7.9955
G1 X90.771 Y132.693 E8.22757
G1 X91.933 Y132.021 E8.27914
G1 X91.261 Y130.859 E8.3307
G1 X92.426 Y130.186 E8.38239
G1 X91.754 Y129.022 E8.43402
G1 X92.918 Y128.351 E8.48563
G1 X92.246 Y127.187 E8.53726
G1 X93.409 Y126.515 E8.58886
G1 X92.738 Y125.352 E8.64044
G1 X93.9 Y124.68 E8.69201
G1 X93.228 Y123.518 E8.74358
G1 X94.13 Y122.997 E8.78359
G1 X90.161 Y113.735 E9.17069
G1 X84.73 Y113.735 E9.37932
G1 X84.434 Y113.439 E9.3954
G1 X84.434 Y102.989 E9.79684
G1 X84.73 Y102.693 E9.81293
G1 X91.316 Y102.693 E10.06593
G1 X91.563 Y102.114 E10.09011
G1 X91.654 Y101.861 E10.10044
G1 X91.819 Y101.29 E10.12327
G1 X91.882 Y100.778 E10.14309
G1 X94.434 Y98.22 E10.2819
G1 X94.434 Y93.735 E10.45419
G1 X84.73 Y93.735 E10.82697
G1 X84.434 Y93.439 E10.84306
G1 X84.434 Y83.735 E11.21584
G1 X80.694 Y83.735 E11.35951
G1 X80.616 Y83.792 E11.36322
G1 X80.505 Y83.735 E11.36802
G1 X80.694 Y83.735 E11.37528
G1 X80.925 Y83.504 E11.38783
G1 X80.057 Y83.504 E11.42117
G1 X80.505 Y83.735 E11.44054
G1 X75.476 Y83.735 E11.63373
G1 X75.476 Y84.803 E11.67475
G1 X75.852 Y85.239 E11.69687
G1 X76.044 Y85.44 E11.70755
G1 X76.232 Y85.621 E11.71758
G1 X76.593 Y85.936 E11.73598
G1 X76.911 Y86.183 E11.75145
G1 X77.192 Y86.363 E11.76427
G1 X77.76 Y86.669 E11.78905
G1 X75.476 Y88.954 E11.91316
G1 X75.476 Y93.439 E12.08546
G1 X75.18 Y93.735 E12.10154
G1 X70.696 Y93.735 E12.27379
G1 X67.776 Y96.656 E12.43246
G1 X67.539 Y96.91 E12.4458
G1 X67.199 Y97.308 E12.46591
G1 X66.881 Y97.722 E12.48597
G1 X66.682 Y98.006 E12.49929
G1 X66.492 Y98.299 E12.5127
G1 X66.312 Y98.597 E12.52608
G1 X66.143 Y98.902 E12.53947
G1 X65.986 Y99.212 E12.55282
G1 X65.838 Y99.529 E12.56626
G1 X65.703 Y99.848 E12.57957
G1 X65.476 Y100.453 E12.60439
G1 X65.476 Y106.699 E12.84433
G1 X65.639 Y107.164 E12.86326
G1 X65.769 Y107.486 E12.8766
G1 X68.001 Y112.693 E13.09423
G1 X75.18 Y112.693 E13.37002
G1 X75.476 Y112.989 E13.3861
G1 X75.476 Y130.136 E14.04481
G1 X80.86 Y142.693 E14.56966
G1 X75.476 Y142.693 E14.77649
G1 X75.476 Y130.136 E15.25888
G1 X75.245 Y129.597 E15.2814
;;retract;;
G1 F1500 E14.7214
G1 F2400 X75.265 Y131.597 E14.4934
G1 F1500 E14.4814
G0 F4800 X74.811 Y129.597
G0 X73.397 Y125.285
G1 F1500 E15.2814
G1 X73.397 Y142.693 E15.95014
G1 X73.437 Y143.1 E15.96585
G1 X73.556 Y143.49 E15.98151
G1 X73.748 Y143.849 E15.99715
G1 X74.007 Y144.164 E16.01282
G1 X74.322 Y144.422 E16.02846
G1 X74.681 Y144.614 E16.0441
G1 X75.071 Y144.732 E16.05975
G1 X75.476 Y144.772 E16.07539
G1 X82.116 Y144.772 E16.33047
G1 X81.78 Y144.311 E16.35238
G1 X75.476 Y144.31 E16.59455
G1 X75.119 Y144.27 E16.60835
G1 X74.78 Y144.152 E16.62214
G1 X74.475 Y143.963 E16.63592
G1 X74.219 Y143.711 E16.64972
G1 X74.026 Y143.408 E16.66352
G1 X73.904 Y143.07 E16.67733
G1 X73.859 Y142.693 E16.69191
G1 X73.859 Y126.363 E17.31924
G1 X73.397 Y125.285 E17.36429
;;retract;;
G1 F1500 E16.80429
G1 F2400 X73.401 Y127.285 E16.57629
G1 F1500 E16.56429
G0 F4800 X73.397 Y125.285
G0 X74.823 Y143.346
G0 X85.087 Y143.346
G0 X90.279 Y134.528
G1 F1500 E17.36429
G1 X90.42 Y134.772 E17.37512
G1 X94.434 Y134.772 E17.52932
G1 X94.841 Y134.732 E17.54503
G1 X95.231 Y134.613 E17.56069
G1 X95.59 Y134.421 E17.57633
G1 X95.905 Y134.162 E17.592
G1 X96.163 Y133.847 E17.60764
G1 X96.355 Y133.488 E17.62328
G1 X96.473 Y133.098 E17.63893
G1 X96.513 Y132.693 E17.65457
G1 X96.513 Y113.735 E18.38285
G1 X96.473 Y113.328 E18.39856
G1 X96.354 Y112.938 E18.41422
G1 X96.162 Y112.579 E18.42986
G1 X95.903 Y112.264 E18.44553
G1 X95.588 Y112.006 E18.46117
G1 X95.229 Y111.814 E18.47681
G1 X94.839 Y111.696 E18.49246
G1 X94.434 Y111.656 E18.5081
G1 X89.27 Y111.656 E18.70647
G1 X89.468 Y112.118 E18.72578
G1 X94.434 Y112.118 E18.91655
G1 X94.791 Y112.158 E18.93035
G1 X95.13 Y112.276 E18.94414
G1 X95.435 Y112.465 E18.95793
G1 X95.691 Y112.717 E18.97173
G1 X95.884 Y113.02 E18.98553
G1 X96.006 Y113.358 E18.99933
G1 X96.051 Y113.735 E19.01392
G1 X96.051 Y132.693 E19.7422
G1 X96.011 Y133.05 E19.756
G1 X95.893 Y133.389 E19.76979
G1 X95.704 Y133.694 E19.78357
G1 X95.452 Y133.95 E19.79737
G1 X95.149 Y134.143 E19.81117
G1 X94.811 Y134.265 E19.82497
G1 X94.434 Y134.31 E19.83956
G1 X90.656 Y134.31 E19.98469
G1 X90.279 Y134.528 E20.00142
G0 F4800 X90.904 Y132.924
G1 F1500 X94.501 Y132.924 E20.1396
G1 X94.665 Y132.79 E20.14774
G1 X94.665 Y113.668 E20.88232
G1 X94.531 Y113.504 E20.89046
G1 X90.062 Y113.504 E21.06213
G1 X90.161 Y113.735 E21.07179
G1 X94.434 Y113.735 E21.23594
G1 X94.434 Y132.693 E21.96422
G1 X90.786 Y132.693 E22.10436
G1 X90.904 Y132.924 E22.11432
G0 F4800 X91.437 Y133.848
G1 F1500 X94.434 Y133.848 E22.22945
G1 X94.724 Y133.811 E22.24068
G1 X95.005 Y133.697 E22.25233
G1 X95.247 Y133.514 E22.26399
G1 X95.432 Y133.274 E22.27563
G1 X95.549 Y132.994 E22.28729
G1 X95.589 Y132.693 E22.29895
G1 X95.589 Y113.735 E23.02723
G1 X95.552 Y113.445 E23.03846
G1 X95.438 Y113.164 E23.05011
G1 X95.255 Y112.922 E23.06177
G1 X95.015 Y112.737 E23.07341
G1 X94.735 Y112.62 E23.08507
G1 X94.434 Y112.58 E23.09673
G1 X89.666 Y112.58 E23.2799
G1 X89.864 Y113.042 E23.29921
G1 X94.593 Y113.042 E23.48087
G1 X94.978 Y113.256 E23.49779
G1 X95.127 Y113.627 E23.51315
G1 X95.127 Y132.693 E24.24558
G1 X94.973 Y133.129 E24.26334
G1 X94.796 Y133.284 E24.27238
G1 X94.542 Y133.386 E24.2829
G1 X91.171 Y133.386 E24.4124
G1 X91.437 Y133.848 E24.43287
;;retract;;
G1 F1500 E23.87287
G1 F2400 X93.437 Y133.826 E23.64487
G1 F1500 E23.63287
G0 F4800 X91.437 Y133.848
G0 X95.087 Y133.346
G0 X95.087 Y113.082
G0 X87.882 Y104.772
G1 F1500 E24.43287
G1 X94.434 Y104.772 E24.68457
G1 X94.841 Y104.732 E24.70028
G1 X95.231 Y104.613 E24.71595
G1 X95.59 Y104.421 E24.73159
G1 X95.905 Y104.162 E24.74725
G1 X96.163 Y103.847 E24.76289
G1 X96.355 Y103.488 E24.77853
G1 X96.473 Y103.098 E24.79419
G1 X96.513 Y102.693 E24.80982
G1 X96.513 Y100.414 E24.89737
G1 X96.051 Y100.085 E24.91916
G1 X96.051 Y102.693 E25.01935
G1 X96.011 Y103.05 E25.03315
G1 X95.893 Y103.389 E25.04693
G1 X95.704 Y103.694 E25.06072
G1 X95.452 Y103.95 E25.07452
G1 X95.149 Y104.143 E25.08832
G1 X94.811 Y104.265 E25.10212
G1 X94.434 Y104.31 E25.11671
G1 X88.344 Y104.31 E25.35066
G1 X87.882 Y104.772 E25.37576
G0 F4800 X88.806 Y103.848
G1 F1500 X89.299 Y103.848 E25.3947
G1 X89.097 Y103.557 E25.40831
G1 X88.806 Y103.848 E25.42411
;;retract;;
G1 F1500 E24.86411
G1 F2400 X89.097 Y103.557 E24.81726
G1 X88.806 Y103.848 E24.77041
G1 F1500 E24.62411
G0 F4800 X91.188 Y102.924
G1 F1500 E25.42411
G1 X94.501 Y102.924 E25.55139
G1 X94.665 Y102.79 E25.55952
G1 X94.665 Y97.989 E25.74395
G1 X94.434 Y98.22 E25.7565
G1 X94.434 Y102.693 E25.92834
G1 X91.307 Y102.693 E26.04846
G1 X91.188 Y102.924 E26.05844
;;retract;;
