;FLAVOR:Marlin
;TIME:7999.1
;Filament used:9.3354m
;Layer height:0.2
;MINX:44.116
;MINY:63.041
;MINZ:0.2
;MAXX:169.24
;MAXY:181.479
;MAXZ:72.8
;OuterWall Time:1780.43
;InnerWall Time:1342.25
;Skin Time:2212.12
;Support Time:838.164
;SkirtBrim Time:133.394
;Infill Time:27.5299
;Support Infills Time:0
;Combing Time:433.146
;Retraction Time:1185.21
;PrimeTower Time:46.8621
;;;;;;;;;;;;;;;;;;;;;;;;;;;;;;;;;;;;;;;;;;;;;;;;;;;;;;;;;;;;;;
;Creality Print GCode Generated by CXEngine
;CRSLICE_GIT_HASH:d90fa71
;Creality Print Version : V4.3.8.6674
;CXEngine Release Time:2023-10-16 18:06:53
;Gcode Generated Time:2025-01-08 07:41:38
;----------Machine Config--------------
;Machine Name:Ender-3 V3 SE
;Machine Height:250
;Machine Width:220
;Machine Depth:220
;Material Type:PLA
;Material Name:CR-PLA_1.75
;Number of Extruders:1
;ExtruderParams[0] Nozzle Diameter:1000
;----------Profile Config---------------
;Wall Thickness:0.8
;Top/Bottom Thickness:0.8
;Out Wall Line Width:0.42
;Inner Wall Line Width:0.45
;Inital Height:200
;Wall Line Count:2
;Infill Line Distance:8
;Infill Pattern:grid
;Infill Sparse Density:10
;Infill Wipe Distance:0
;Print Temperature:190
;Bed Temperature:60
;Support Enable:false
;Support Density:15
;Support Angle:60
;Adhesion Type:autobrim
;machine is belt:false
;machine belt offset:10
;machine belt offset Y:0
;Raft Base Line Spacing:1.6
;Wait Heatup Sync:true
;Enable Ironing:false
;Material Type:PLA
;Max volumetric speed:20
;Material Diameter:1.75
;Material Density:1.24
;Filament Cost:20
;Filament Weight:1000
;Preview Img Type:png
;Screen Size:Sermoon D3
;----------Shell Config----------------
;Outer Wall Wipe Distance:200
;Outer Inset First:false
;Infill Before Walls:false
;Infill Overlap:0.04
;Fill Gaps Between Walls:everywhere
;Minimum Infill Area:15
;Top Surface Skin Layer:0
;Top Layers:4
;Z Seam Alignment:sharpest_corner
;Seam Corner Preference:z_seam_corner_inner
;Z Seam X:110
;Z Seam Y:220
;Horizontal Expansion:0
;Top/Bottom Pattern:zigzag
;Ironing Pattern:zigzag
;Vase Model:false
;----------Support Config----------------
;Support Type:everywhere
;Support Pattern:zigzag
;Support Infill Layer Thickness:0.15
;Minimum Support Area:1
;Enable Support Roof:true
;Support Roof Thickness:0.8
;Support Roof Pattern:lines
;Connect Support Lines:0
;Connect Support ZigZags:1
;Minimum Support X/Y Distance:0.2
;Support Line Distance:2.67
; ---------PrintSpeed & Travel----------
;Enable Print Cool:true
;Avoid Printed Parts Traveling:true
;Enable Retraction:true
;Retraction Distance:0.8
;Retraction Speed:25
;Retraction Prime Speed:25
;Maximum Retraction Count:100
;Minimum Extrusion Distance Window:0.8
;Z Hop When Retracted:false
;Z Hop Height:0.2
;Retract Before Outer Wall:true

;Outer Wall Speed:60
;Inner Wall Speed:90
;Infill Speed:180
;Top/Bottom Speed:50
;Travel Speed:150
;Initial Layer Speed:30
;Skirt/Brim Speed:25
;Prime Tower Speed:60
;Outer Wall Acceleration:1000
;Inner Wall Acceleration:2000
;Infill Acceleration:2500
;Top/Bottom Acceleration:2500
;Travel Acceleration:2500
;Initial Layer Print Acceleration:500
;Initial Layer Travel Acceleration:500
;Skirt/Brim Acceleration:500
;Combing Mode:no_outer_surfaces
; --------SpecialModel&Mesh Fixes--------
;Union Overlapping Volum:true
;Remove All Holes:false
;Maximum Travel Resolution:0.25
;Maximum Deviation:0.05
;Maximum Model Angle:0.872665
;IS Mold Print:false
;Make Overhang Printable:false
;Enable Coasting:false
;Coasting Volumes:0.064
;Coasting Speed:0.9
;Raft AirGap:0.25
;Layer0 ZOverLap:0.13
;Adaptive Layers:0
;---------------------End of Head--------------------------
M140 S60
M105
M190 S60
M104 S190
M82 ;absolute extrusion mode
M220 S100 ;Reset Feedrate
M221 S100 ;Reset Flowrate

G28 ;Home

G92 E0 ;Reset Extruder
G1 Z2.0 F3000 ;Move Z Axis up
G1 X-2.1 Y20 Z0.28 F5000.0 ;Move to start position
M109 S190.000000
G1 X-2.1 Y145.0 Z0.28 F1500.0 E15 ;Draw the first line
G1 X-2.4 Y145.0 Z0.28 F5000.0 ;Move to side a little
G1 X-2.4 Y20 Z0.28 F1500.0 E30 ;Draw the second line
G92 E0  ;Reset Extruder
G1 E-1.0000 F1800 ;Retract a bit
G1 Z2.0 F3000 ;Move Z Axis up
G1 E0.0000 F1800 

G92 E0
G92 E0
G1 F1500 E-0.8
;LAYER_COUNT:364

;LAYER:0
M106 S0
M204 S500
G0 F4800 X65.72 Y99.845 Z0.2
;TYPE:SKIRT
G1 F1500 E0
G1 X65.468 Y100.101 E0.0138
G1 X65.279 Y100.406 E0.02758
G1 X65.161 Y100.745 E0.04137
G1 X65.121 Y101.102 E0.05517
G1 X65.121 Y109.104 E0.36257
G1 X65.583 Y109.132 E0.38035
G1 X65.583 Y101.102 E0.68883
G1 X65.623 Y100.801 E0.70049
G1 X65.74 Y100.521 E0.71215
G1 X65.925 Y100.281 E0.72379
G1 X66.167 Y100.098 E0.73545
G1 X66.448 Y99.984 E0.7471
G1 X66.738 Y99.947 E0.75833
G1 X80.196 Y99.947 E1.27532
G1 X80.497 Y99.987 E1.28699
G1 X80.777 Y100.104 E1.29865
G1 X81.017 Y100.289 E1.31029
G1 X81.2 Y100.531 E1.32194
G1 X81.314 Y100.812 E1.33359
G1 X81.351 Y101.102 E1.34482
G1 X81.351 Y111.597 E1.74799
G1 X81.311 Y111.898 E1.75966
G1 X81.194 Y112.178 E1.77132
G1 X81.009 Y112.418 E1.78296
G1 X80.767 Y112.601 E1.79461
G1 X80.486 Y112.715 E1.80626
G1 X80.196 Y112.752 E1.81749
G1 X73.416 Y112.75 E2.07795
G1 X73.115 Y112.71 E2.08961
G1 X72.838 Y112.595 E2.10113
G1 X72.354 Y112.315 E2.12261
G1 X72.113 Y112.13 E2.13429
G1 X71.93 Y111.889 E2.14591
G1 X71.643 Y111.388 E2.16809
G1 X71.528 Y111.107 E2.17975
G1 X71.496 Y110.863 E2.18921
G1 X68.55 Y110.775 E2.30243
G1 X68.524 Y111.236 E2.32017
G1 X71.11 Y111.314 E2.41956
G1 X71.242 Y111.618 E2.43229
G1 X71.529 Y112.119 E2.45447
G1 X71.833 Y112.501 E2.47322
G1 X72.299 Y112.846 E2.4955
G1 X71.983 Y113.001 E2.50902
G1 X71.706 Y113.23 E2.52282
G1 X71.486 Y113.514 E2.53662
G1 X71.334 Y113.839 E2.55041
G1 X71.258 Y114.19 E2.5642
G1 X71.229 Y114.581 E2.57927
G1 X71.274 Y114.937 E2.59305
G1 X71.396 Y115.275 E2.60685
G1 X71.589 Y115.578 E2.62066
G1 X71.845 Y115.83 E2.63445
G1 X72.15 Y116.019 E2.64824
G1 X72.489 Y116.137 E2.66203
G1 X72.846 Y116.177 E2.67583
G1 X80.196 Y116.177 E2.95818
G1 X80.573 Y116.132 E2.97277
G1 X80.911 Y116.01 E2.98657
G1 X81.214 Y115.817 E3.00037
G1 X81.466 Y115.561 E3.01417
G1 X81.655 Y115.256 E3.02796
G1 X81.773 Y114.917 E3.04175
G1 X81.825 Y114.454 E3.05964
G1 X81.768 Y113.978 E3.07806
G1 X81.646 Y113.64 E3.09186
G1 X81.453 Y113.337 E3.10566
G1 X81.09 Y112.98 E3.12522
G1 X81.466 Y112.598 E3.14581
G1 X81.655 Y112.293 E3.1596
G1 X81.773 Y111.954 E3.17339
G1 X81.813 Y111.597 E3.18719
G1 X81.813 Y101.102 E3.59036
G1 X81.768 Y100.725 E3.60494
G1 X81.646 Y100.387 E3.61875
G1 X81.453 Y100.084 E3.63255
G1 X81.197 Y99.832 E3.64635
G1 X80.892 Y99.643 E3.66013
G1 X80.553 Y99.525 E3.67392
G1 X80.196 Y99.485 E3.68772
G1 X66.738 Y99.485 E4.20472
G1 X66.361 Y99.53 E4.2193
G1 X66.023 Y99.652 E4.23311
G1 X65.72 Y99.845 E4.24691
G0 F4800 X66.738 Y101.102
G1 F1500 X66.738 Y109.566 E4.57205
G1 X72.644 Y109.742 E4.79904
G1 X72.645 Y110.814 E4.84022
G1 X72.932 Y111.315 E4.8624
G1 X73.416 Y111.595 E4.88388
G1 X80.196 Y111.597 E5.14434
G1 X80.196 Y101.102 E5.54751
G1 X66.738 Y101.102 E6.0645
G0 F4800 X66.671 Y100.871
G1 F1500 X66.507 Y101.005 E6.07264
G1 X66.507 Y109.627 E6.40386
G1 X66.635 Y109.794 E6.41194
G1 X72.413 Y109.966 E6.634
G1 X72.414 Y110.875 E6.66892
G1 X72.763 Y111.484 E6.69589
G1 X73.354 Y111.826 E6.72212
G1 X80.263 Y111.828 E6.98753
G1 X80.427 Y111.694 E6.99566
G1 X80.427 Y101.035 E7.40513
G1 X80.293 Y100.871 E7.41327
G1 X66.671 Y100.871 E7.93657
;;retract;;
G1 F1500 E7.37657
G1 F2400 X66.634 Y102.87 E7.14857
G1 F1500 E7.13657
G0 F4800 X66.073 Y100.871
G0 X66.085 Y100.449
G0 X80.849 Y100.449
G0 X80.849 Y112.25
G0 X73.338 Y112.261
G0 X68.02 Y111.198
G0 X67.361 Y111.664
G1 F1500 E7.93657
G1 X67.362 Y111.721 E7.93876
G1 X67.526 Y111.669 E7.94536
G1 X67.361 Y111.664 E7.95171
G0 F4800 X66.738 Y113.728
G1 F1500 X66.738 Y114.56 E7.98367
G1 X68.527 Y114.56 E8.05239
G1 X68.398 Y114.051 E8.07256
G1 X68.29 Y113.804 E8.08292
G1 X68.178 Y113.633 E8.09077
G1 X68.181 Y113.966 E8.10357
G1 X66.738 Y113.728 E8.15975
G0 F4800 X66.976 Y113.533
G1 F1500 X66.65 Y113.556 E8.1723
G1 X66.507 Y113.673 E8.1794
G1 X66.507 Y114.627 E8.21605
G1 X66.641 Y114.791 E8.22419
G1 X68.565 Y114.791 E8.2981
G1 X68.725 Y114.635 E8.30668
G1 X68.688 Y114.255 E8.32135
G1 X68.61 Y113.958 E8.33314
G1 X68.43 Y113.545 E8.35045
G1 X68.222 Y113.406 E8.36006
G1 X67.985 Y113.506 E8.36994
G1 X67.948 Y113.693 E8.37727
G1 X66.976 Y113.533 E8.41511
;;retract;;
G1 F1500 E7.85511
G1 F2400 X66.507 Y113.673 E7.79936
G1 X66.507 Y114.627 E7.69061
G1 X66.641 Y114.791 E7.66655
G1 X66.987 Y114.791 E7.62711
G1 F1500 E7.61511
G0 F4800 X68.021 Y113.003
G0 X68.413 Y112.877
G0 X71.69 Y114.354
G1 F1500 E8.41511
G1 X71.728 Y114.85 E8.43422
G1 X71.842 Y115.131 E8.44587
G1 X72.025 Y115.373 E8.45752
G1 X72.265 Y115.558 E8.46916
G1 X72.545 Y115.675 E8.48082
G1 X72.846 Y115.715 E8.49249
G1 X80.196 Y115.715 E8.77484
G1 X80.486 Y115.678 E8.78607
G1 X80.767 Y115.564 E8.79772
G1 X81.009 Y115.381 E8.80938
G1 X81.194 Y115.141 E8.82102
G1 X81.311 Y114.861 E8.83267
G1 X81.364 Y114.46 E8.84821
G1 X81.314 Y114.065 E8.86351
G1 X81.2 Y113.784 E8.87516
G1 X81.017 Y113.542 E8.88681
G1 X80.777 Y113.357 E8.89845
G1 X80.497 Y113.24 E8.91011
G1 X80.196 Y113.2 E8.92178
G1 X72.737 Y113.2 E9.20832
G1 X72.401 Y113.298 E9.22176
G1 X72.142 Y113.456 E9.23342
G1 X71.933 Y113.676 E9.24507
G1 X71.788 Y113.942 E9.25671
G1 X71.69 Y114.354 E9.27298
G0 F4800 X72.181 Y114.143
G1 F1500 X72.168 Y114.705 E9.29458
G1 X72.41 Y115.099 E9.31234
G1 X72.687 Y115.253 E9.32451
G1 X80.304 Y115.253 E9.61712
G1 X80.675 Y115.104 E9.63248
G1 X80.895 Y114.708 E9.64989
G1 X80.874 Y114.21 E9.66903
G1 X80.632 Y113.816 E9.6868
G1 X80.355 Y113.662 E9.69897
G1 X72.867 Y113.662 E9.98663
G1 X72.454 Y113.756 E10.0029
G1 X72.181 Y114.143 E10.02109
G0 F4800 X72.867 Y114.355
G1 F1500 X72.846 Y114.56 E10.02901
G1 X80.196 Y114.56 E10.31136
G1 X80.196 Y114.355 E10.31924
G1 X72.867 Y114.355 E10.60078
G0 F4800 X72.639 Y114.231
G1 F1500 X72.632 Y114.648 E10.6168
G1 X72.749 Y114.791 E10.6239
G1 X80.263 Y114.791 E10.91256
G1 X80.432 Y114.653 E10.92094
G1 X80.41 Y114.267 E10.93579
G1 X80.293 Y114.124 E10.94289
G1 X72.867 Y114.124 E11.22816
G1 X72.639 Y114.231 E11.23784
;;retract;;
G1 F1500 E10.67784
G1 F2400 X72.749 Y114.791 E10.61286
G1 X74.179 Y114.791 E10.44984
G1 F1500 E10.43784
G0 F4800 X72.345 Y113.937
G0 X72.193 Y115.213
G0 X100.329 Y133.336
G1 F1500 E11.23784
G1 X100.014 Y133.595 E11.2535
G1 X99.756 Y133.91 E11.26914
G1 X99.564 Y134.269 E11.28478
G1 X99.446 Y134.659 E11.30044
G1 X99.406 Y135.064 E11.31607
G1 X99.406 Y148.522 E11.83307
G1 X99.446 Y148.929 E11.84878
G1 X99.565 Y149.319 E11.86444
G1 X99.757 Y149.678 E11.88008
G1 X100.016 Y149.993 E11.89575
G1 X100.331 Y150.251 E11.91139
G1 X100.69 Y150.443 E11.92703
G1 X101.08 Y150.561 E11.94268
G1 X101.485 Y150.601 E11.95831
G1 X114.943 Y150.601 E12.47531
G1 X115.35 Y150.561 E12.49102
G1 X115.74 Y150.442 E12.50668
G1 X116.099 Y150.25 E12.52232
G1 X116.414 Y149.991 E12.53799
G1 X116.672 Y149.676 E12.55363
G1 X116.864 Y149.317 E12.56927
G1 X116.982 Y148.927 E12.58492
G1 X117.022 Y148.522 E12.60056
G1 X117.022 Y135.064 E13.11755
G1 X116.982 Y134.657 E13.13326
G1 X116.863 Y134.267 E13.14893
G1 X116.671 Y133.908 E13.16457
G1 X116.412 Y133.593 E13.18023
G1 X116.097 Y133.335 E13.19587
G1 X115.738 Y133.143 E13.21151
G1 X115.348 Y133.025 E13.22717
G1 X114.943 Y132.985 E13.2428
G1 X101.485 Y132.985 E13.7598
G1 X101.078 Y133.025 E13.77551
G1 X100.688 Y133.144 E13.79117
G1 X100.329 Y133.336 E13.80681
G0 F4800 X100.467 Y133.807
G1 F1500 X100.215 Y134.063 E13.82061
G1 X100.026 Y134.368 E13.83439
G1 X99.908 Y134.707 E13.84818
G1 X99.868 Y135.064 E13.86198
G1 X99.868 Y148.522 E14.37898
G1 X99.913 Y148.899 E14.39356
G1 X100.035 Y149.237 E14.40737
G1 X100.228 Y149.54 E14.42117
G1 X100.484 Y149.792 E14.43497
G1 X100.789 Y149.981 E14.44875
G1 X101.128 Y150.099 E14.46254
G1 X101.485 Y150.139 E14.47634
G1 X114.943 Y150.139 E14.99334
G1 X115.32 Y150.094 E15.00792
G1 X115.658 Y149.972 E15.02173
G1 X115.961 Y149.779 E15.03553
G1 X116.213 Y149.523 E15.04933
G1 X116.402 Y149.218 E15.06311
G1 X116.52 Y148.879 E15.0769
G1 X116.56 Y148.522 E15.0907
G1 X116.56 Y135.064 E15.60769
G1 X116.515 Y134.687 E15.62228
G1 X116.393 Y134.349 E15.63608
G1 X116.2 Y134.046 E15.64989
G1 X115.944 Y133.794 E15.66368
G1 X115.639 Y133.605 E15.67747
G1 X115.3 Y133.487 E15.69126
G1 X114.943 Y133.447 E15.70506
G1 X101.485 Y133.447 E16.22205
G1 X101.108 Y133.492 E16.23664
G1 X100.77 Y133.614 E16.25044
G1 X100.467 Y133.807 E16.26424
G0 F4800 X100.672 Y134.243
G1 F1500 X100.487 Y134.483 E16.27588
G1 X100.37 Y134.763 E16.28754
G1 X100.33 Y135.064 E16.29921
G1 X100.33 Y148.522 E16.8162
G1 X100.367 Y148.812 E16.82743
G1 X100.481 Y149.093 E16.83908
G1 X100.664 Y149.335 E16.85074
G1 X100.904 Y149.52 E16.86238
G1 X101.184 Y149.637 E16.87404
G1 X101.485 Y149.677 E16.8857
G1 X114.943 Y149.677 E17.4027
G1 X115.233 Y149.64 E17.41393
G1 X115.514 Y149.526 E17.42558
G1 X115.756 Y149.343 E17.43723
G1 X115.941 Y149.103 E17.44887
G1 X116.058 Y148.823 E17.46053
G1 X116.098 Y148.522 E17.47219
G1 X116.098 Y135.064 E17.98919
G1 X116.061 Y134.774 E18.00042
G1 X115.947 Y134.493 E18.01207
G1 X115.764 Y134.251 E18.02373
G1 X115.524 Y134.066 E18.03537
G1 X115.244 Y133.949 E18.04702
G1 X114.943 Y133.909 E18.05869
G1 X101.485 Y133.909 E18.57568
G1 X101.195 Y133.946 E18.58691
G1 X100.914 Y134.06 E18.59856
G1 X100.672 Y134.243 E18.61022
G0 F4800 X100.946 Y134.628
G1 F1500 X100.792 Y135.064 E18.62798
G1 X100.792 Y148.63 E19.14913
G1 X100.894 Y148.884 E19.15964
G1 X101.049 Y149.061 E19.16868
G1 X101.485 Y149.215 E19.18644
G1 X115.051 Y149.215 E19.70759
G1 X115.305 Y149.113 E19.7181
G1 X115.482 Y148.958 E19.72714
G1 X115.636 Y148.522 E19.7449
G1 X115.636 Y134.956 E20.26605
G1 X115.534 Y134.702 E20.27656
G1 X115.379 Y134.525 E20.2856
G1 X114.943 Y134.371 E20.30336
G1 X101.377 Y134.371 E20.82451
G1 X101.123 Y134.473 E20.83502
G1 X100.946 Y134.628 E20.84406
G0 F4800 X101.485 Y135.064
G1 F1500 X101.485 Y148.522 E21.36106
G1 X114.943 Y148.522 E21.87805
G1 X114.943 Y135.064 E22.39505
G1 X101.485 Y135.064 E22.91204
G0 F4800 X101.254 Y134.967
G1 F1500 X101.254 Y148.589 E23.43534
G1 X101.388 Y148.753 E23.44347
G1 X115.01 Y148.753 E23.96677
G1 X115.174 Y148.619 E23.9749
G1 X115.174 Y134.997 E24.4982
G1 X115.04 Y134.833 E24.50633
G1 X101.418 Y134.833 E25.02963
G1 X101.254 Y134.967 E25.03777
;;retract;;
G1 F1500 E24.47777
G1 F2400 X101.273 Y136.967 E24.24977
G1 F1500 E24.23777
G0 F4800 X100.82 Y134.967
G0 X88.948 Y132.586
G1 F1500 E25.03777
G1 X88.908 Y132.179 E25.05348
G1 X88.789 Y131.789 E25.06914
G1 X88.597 Y131.43 E25.08478
G1 X88.338 Y131.115 E25.10045
G1 X88.023 Y130.857 E25.11609
G1 X87.664 Y130.665 E25.13173
G1 X87.274 Y130.547 E25.14738
G1 X86.869 Y130.507 E25.16301
G1 X73.411 Y130.507 E25.68001
G1 X73.004 Y130.547 E25.69572
G1 X72.614 Y130.666 E25.71138
G1 X72.072 Y130.956 E25.735
G1 X72.072 Y131.436 E25.75344
G1 X71.61 Y131.436 E25.77118
G1 X71.61 Y131.898 E25.78893
G1 X71.148 Y131.898 E25.80668
G1 X71.148 Y132.367 E25.8247
G1 X70.855 Y132.462 E25.83653
G1 X70.686 Y132.611 E25.84519
G1 X70.686 Y139.154 E26.09654
G1 X70.201 Y139.303 E26.11603
G1 X70.168 Y139.555 E26.12579
G1 X70.657 Y139.405 E26.14544
G1 X70.677 Y139.157 E26.155
G1 X70.872 Y139.097 E26.16284
G1 X70.98 Y138.963 E26.16945
G1 X70.974 Y137.045 E26.24313
G1 X70.985 Y136.827 E26.25151
G1 X70.974 Y136.155 E26.27733
G1 X70.984 Y135.907 E26.28687
G1 X70.986 Y132.952 E26.40039
G1 X71.148 Y132.835 E26.40806
G1 X71.148 Y132.36 E26.42631
G1 X71.61 Y132.36 E26.44406
G1 X71.61 Y131.898 E26.46181
G1 X72.072 Y131.898 E26.47955
G1 X72.072 Y131.436 E26.4973
G1 X72.288 Y131.436 E26.5056
G1 X72.393 Y131.329 E26.51136
G1 X72.696 Y131.136 E26.52516
G1 X73.034 Y131.014 E26.53896
G1 X73.411 Y130.969 E26.55355
G1 X86.869 Y130.969 E27.07054
G1 X87.226 Y131.009 E27.08434
G1 X87.565 Y131.127 E27.09813
G1 X87.87 Y131.316 E27.11192
G1 X88.126 Y131.568 E27.12572
G1 X88.319 Y131.871 E27.13952
G1 X88.441 Y132.209 E27.15332
G1 X88.486 Y132.586 E27.16791
G1 X88.486 Y146.044 E27.6849
G1 X88.446 Y146.401 E27.6987
G1 X88.328 Y146.74 E27.71249
G1 X88.139 Y147.045 E27.72628
G1 X87.887 Y147.301 E27.74008
G1 X87.584 Y147.494 E27.75388
