;FLAVOR:Marlin
;TIME:4399.88
;Filament used:5.33938m
;Layer height:0.2
;MINX:36.603
;MINY:14.416
;MINZ:0.2
;MAXX:214.009
;MAXY:202.112
;MAXZ:28.2
;OuterWall Time:971.279
;InnerWall Time:789.994
;Skin Time:1721.72
;Support Time:0
;SkirtBrim Time:28.1457
;Infill Time:24.6099
;Support Infills Time:0
;Combing Time:278.988
;Retraction Time:585.148
;PrimeTower Time:0
;;;;;;;;;;;;;;;;;;;;;;;;;;;;;;;;;;;;;;;;;;;;;;;;;;;;;;;;;;;;;;;;;;;;;;;
;Creality Print GCode Generated by CXEngine
;CRSLICE_GIT_HASH:d90fa71
;Creality Print Version : V4.3.8.6674
;CXEngine Release Time:2023-10-16 18:06:53
;Gcode Generated Time:2025-01-08 08:08:28
;----------Machine Config--------------
;Machine Name:Ender-3 V3 SE
;Machine Height:250
;Machine Width:220
;Machine Depth:220
;Material Type:PLA
;Material Name:CR-PLA_1.75
;Number of Extruders:1
;ExtruderParams[0] Nozzle Diameter:1000
;----------Profile Config---------------
;Wall Thickness:0.8
;Top/Bottom Thickness:0.8
;Out Wall Line Width:0.42
;Inner Wall Line Width:0.45
;Inital Height:200
;Wall Line Count:2
;Infill Line Distance:8
;Infill Pattern:grid
;Infill Sparse Density:10
;Infill Wipe Distance:0
;Print Temperature:190
;Bed Temperature:60
;Support Enable:false
;Support Density:15
;Support Angle:60
;Adhesion Type:autobrim
;machine is belt:false
;machine belt offset:10
;machine belt offset Y:0
;Raft Base Line Spacing:1.6
;Wait Heatup Sync:true
;Enable Ironing:false
;Material Type:PLA
;Max volumetric speed:20
;Material Diameter:1.75
;Material Density:1.24
;Filament Cost:20
;Filament Weight:1000
;Preview Img Type:png
;Screen Size:Sermoon D3
;----------Shell Config----------------
;Outer Wall Wipe Distance:200
;Outer Inset First:false
;Infill Before Walls:false
;Infill Overlap:0.04
;Fill Gaps Between Walls:everywhere
;Minimum Infill Area:15
;Top Surface Skin Layer:0
;Top Layers:4
;Z Seam Alignment:sharpest_corner
;Seam Corner Preference:z_seam_corner_inner
;Z Seam X:110
;Z Seam Y:220
;Horizontal Expansion:0
;Top/Bottom Pattern:zigzag
;Ironing Pattern:zigzag
;Vase Model:false
;----------Support Config----------------
;Support Type:everywhere
;Support Pattern:zigzag
;Support Infill Layer Thickness:0.15
;Minimum Support Area:1
;Enable Support Roof:true
;Support Roof Thickness:0.8
;Support Roof Pattern:lines
;Connect Support Lines:0
;Connect Support ZigZags:1
;Minimum Support X/Y Distance:0.2
;Support Line Distance:2.67
; ---------PrintSpeed & Travel----------
;Enable Print Cool:true
;Avoid Printed Parts Traveling:true
;Enable Retraction:true
;Retraction Distance:0.8
;Retraction Speed:25
;Retraction Prime Speed:25
;Maximum Retraction Count:100
;Minimum Extrusion Distance Window:0.8
;Z Hop When Retracted:false
;Z Hop Height:0.2
;Retract Before Outer Wall:true

;Outer Wall Speed:60
;Inner Wall Speed:90
;Infill Speed:180
;Top/Bottom Speed:50
;Travel Speed:150
;Initial Layer Speed:30
;Skirt/Brim Speed:25
;Prime Tower Speed:60
;Outer Wall Acceleration:1000
;Inner Wall Acceleration:2000
;Infill Acceleration:2500
;Top/Bottom Acceleration:2500
;Travel Acceleration:2500
;Initial Layer Print Acceleration:500
;Initial Layer Travel Acceleration:500
;Skirt/Brim Acceleration:500
;Combing Mode:no_outer_surfaces
; --------SpecialModel&Mesh Fixes--------
;Union Overlapping Volum:true
;Remove All Holes:false
;Maximum Travel Resolution:0.25
;Maximum Deviation:0.05
;Maximum Model Angle:0.872665
;IS Mold Print:false
;Make Overhang Printable:false
;Enable Coasting:false
;Coasting Volumes:0.064
;Coasting Speed:0.9
;Raft AirGap:0.25
;Layer0 ZOverLap:0.13
;Adaptive Layers:0
;---------------------End of Head--------------------------
M140 S60
M105
M190 S60
M104 S190
M82 ;absolute extrusion mode
M220 S100 ;Reset Feedrate
M221 S100 ;Reset Flowrate

G28 ;Home

G92 E0 ;Reset Extruder
G1 Z2.0 F3000 ;Move Z Axis up
G1 X-2.1 Y20 Z0.28 F5000.0 ;Move to start position
M109 S190.000000
G1 X-2.1 Y145.0 Z0.28 F1500.0 E15 ;Draw the first line
G1 X-2.4 Y145.0 Z0.28 F5000.0 ;Move to side a little
G1 X-2.4 Y20 Z0.28 F1500.0 E30 ;Draw the second line
G92 E0  ;Reset Extruder
G1 E-1.0000 F1800 ;Retract a bit
G1 Z2.0 F3000 ;Move Z Axis up
G1 E0.0000 F1800 

G92 E0
G92 E0
G1 F1500 E-0.8
;LAYER_COUNT:141

;LAYER:0
M106 S0
M204 S500
G0 F4800 X77.056 Y190.972 Z0.2
;TYPE:SKIRT
G1 F1500 E0
G1 X76.892 Y191.106 E0.00814
G1 X76.893 Y193.228 E0.08965
G1 X77.027 Y193.392 E0.09779
G1 X113.774 Y193.392 E1.50944
G1 X113.938 Y193.258 E1.51758
G1 X113.937 Y191.136 E1.5991
G1 X113.803 Y190.972 E1.60723
G1 X77.056 Y190.972 E3.01888
;;retract;;
G1 F1500 E2.45888
G1 F2400 X76.912 Y192.967 E2.23088
G1 F1500 E2.21888
G0 F4800 X77.056 Y190.538
G0 X114.359 Y190.55
G0 X131.288 Y191.203
G0 X131.953 Y191.203
G1 F1500 E3.01888
G1 X131.953 Y193.161 E3.0941
G1 X153.737 Y193.161 E3.93094
G1 X153.736 Y191.203 E4.00616
G1 X131.953 Y191.203 E4.84296
;;retract;;
G1 F1500 E4.28296
G1 F2400 X133.945 Y191.382 E4.05496
G1 F1500 E4.04296
G0 F4800 X131.288 Y191.203
G0 X114.359 Y190.55
G0 X77.123 Y190.538
G0 X77.123 Y191.203
G1 F1500 E4.84296
G1 X77.124 Y193.161 E4.91818
G1 X113.707 Y193.161 E6.32353
G1 X113.706 Y191.203 E6.39875
G1 X77.123 Y191.203 E7.8041
;;retract;;
G1 F1500 E7.2441
G1 F2400 X79.12 Y191.309 E7.0161
G1 F1500 E7.0041
G0 F4800 X77.123 Y190.538
G0 X114.359 Y190.55
G0 X117.68 Y192.206
G1 F1500 E7.8041
G1 X117.438 Y192.389 E7.81576
G1 X117.253 Y192.629 E7.8274
G1 X117.136 Y192.909 E7.83906
G1 X117.096 Y193.21 E7.85072
G1 X117.096 Y194.108 E7.88522
G1 X116.171 Y195.034 E7.9355
G1 X116.013 Y195.231 E7.9452
G1 X115.885 Y195.506 E7.95685
G1 X115.748 Y195.945 E7.97452
G1 X115.696 Y196.289 E7.98789
G1 X115.696 Y200.091 E8.13394
G1 X115.761 Y200.472 E8.14879
G1 X115.893 Y200.85 E8.16417
G1 X116.099 Y201.212 E8.18017
G1 X116.373 Y201.538 E8.19653
G1 X116.592 Y201.74 E8.20798
G1 X116.861 Y201.88 E8.21963
G1 X117.305 Y202.042 E8.23778
G1 X117.701 Y202.112 E8.25323
G1 X127.959 Y202.112 E8.6473
G1 X128.355 Y202.042 E8.66274
G1 X128.799 Y201.88 E8.6809
G1 X129.063 Y201.743 E8.69233
G1 X129.287 Y201.538 E8.70399
G1 X129.561 Y201.212 E8.72035
G1 X129.767 Y200.85 E8.73635
G1 X129.899 Y200.472 E8.75173
G1 X129.964 Y200.091 E8.76658
G1 X129.964 Y196.286 E8.91275
G1 X129.91 Y195.938 E8.92628
G1 X129.72 Y195.336 E8.95053
G1 X129.488 Y195.032 E8.96522
G1 X128.564 Y194.108 E9.01542
G1 X128.564 Y193.209 E9.04995
G1 X128.527 Y192.919 E9.06118
G1 X128.413 Y192.638 E9.07283
G1 X128.229 Y192.396 E9.08451
G1 X127.99 Y192.21 E9.09615
G1 X127.71 Y192.094 E9.10779
G1 X127.409 Y192.054 E9.11945
G1 X118.251 Y192.055 E9.47126
G1 X117.961 Y192.092 E9.48249
G1 X117.68 Y192.206 E9.49414
G0 F4800 X117.772 Y192.666
G1 F1500 X117.558 Y193.051 E9.51106
G1 X117.558 Y194.167 E9.55394
G1 X117.498 Y194.359 E9.56166
G1 X116.498 Y195.36 E9.61602
G1 X116.326 Y195.644 E9.62877
G1 X116.158 Y196.182 E9.65042
G1 X116.158 Y200.207 E9.80505
G1 X116.329 Y200.697 E9.82498
G1 X116.452 Y200.915 E9.8346
G1 X116.785 Y201.311 E9.85448
G1 X117.019 Y201.446 E9.86485
G1 X117.578 Y201.65 E9.88771
G1 X128.082 Y201.65 E10.29123
G1 X128.727 Y201.415 E10.3176
G1 X128.934 Y201.241 E10.32799
G1 X129.208 Y200.915 E10.34435
G1 X129.331 Y200.697 E10.35396
G1 X129.502 Y200.207 E10.3739
G1 X129.502 Y196.178 E10.52868
G1 X129.332 Y195.64 E10.55035
G1 X129.161 Y195.359 E10.56299
G1 X128.163 Y194.361 E10.61721
G1 X128.102 Y194.167 E10.62502
G1 X128.102 Y193.101 E10.66597
G1 X127.953 Y192.73 E10.68133
G1 X127.568 Y192.516 E10.69825
G1 X118.143 Y192.517 E11.06032
G1 X117.772 Y192.666 E11.07567
G0 F4800 X118.251 Y193.21
G1 F1500 X118.25 Y194.276 E11.11662
G1 X118.138 Y194.629 E11.13085
G1 X117.957 Y194.88 E11.14274
G1 X116.988 Y195.85 E11.19541
G1 X116.851 Y196.289 E11.21308
G1 X116.851 Y200.091 E11.35913
G1 X116.983 Y200.469 E11.37451
G1 X117.257 Y200.795 E11.39087
G1 X117.701 Y200.957 E11.40903
G1 X127.959 Y200.957 E11.80309
G1 X128.403 Y200.795 E11.82125
G1 X128.677 Y200.469 E11.83761
G1 X128.809 Y200.091 E11.85299
G1 X128.809 Y196.286 E11.99916
G1 X128.671 Y195.849 E12.01677
G1 X127.556 Y194.734 E12.07734
G1 X127.409 Y194.271 E12.096
G1 X127.409 Y193.209 E12.1368
G1 X118.251 Y193.21 E12.48861
G0 F4800 X118.02 Y193.113
G1 F1500 X118.02 Y194.238 E12.53183
G1 X117.932 Y194.52 E12.54318
G1 X117.78 Y194.731 E12.55317
G1 X116.783 Y195.729 E12.60736
G1 X116.62 Y196.252 E12.6284
G1 X116.62 Y200.13 E12.77738
G1 X116.779 Y200.586 E12.79593
G1 X117.119 Y200.99 E12.81621
G1 X117.66 Y201.188 E12.83834
G1 X128 Y201.188 E13.23556
G1 X128.541 Y200.99 E13.25769
G1 X128.881 Y200.586 E13.27798
G1 X129.04 Y200.13 E13.29653
G1 X129.04 Y196.251 E13.44554
G1 X128.874 Y195.726 E13.46669
G1 X127.756 Y194.608 E13.52743
G1 X127.64 Y194.239 E13.54229
G1 X127.64 Y193.142 E13.58443
G1 X127.506 Y192.978 E13.59257
G1 X118.184 Y192.979 E13.95068
G1 X118.02 Y193.113 E13.95881
;;retract;;
G1 F1500 E13.39881
G1 F2400 X117.932 Y194.52 E13.23819
G1 X117.78 Y194.731 E13.20855
G1 X117.546 Y194.965 E13.17081
G1 F1500 E13.15881
G0 F4800 X117.586 Y193.113
G0 X114.4 Y193.32
G1 F1500 E13.95881
G1 X114.399 Y191.095 E14.04429
G1 X114.297 Y190.841 E14.0548
G1 X114.142 Y190.664 E14.06384
G1 X113.706 Y190.51 E14.0816
G1 X77.016 Y190.51 E15.49107
G1 X76.645 Y190.658 E15.50641
G1 X76.43 Y191.044 E15.52338
G1 X76.431 Y193.269 E15.60886
G1 X76.533 Y193.523 E15.61937
G1 X76.688 Y193.7 E15.62841
G1 X77.124 Y193.854 E15.64617
G1 X113.814 Y193.854 E17.05564
G1 X114.185 Y193.706 E17.07098
G1 X114.4 Y193.32 E17.08796
G0 F4800 X114.862 Y193.16
G1 F1500 X114.861 Y191.202 E17.16317
G1 X114.824 Y190.913 E17.17437
G1 X114.71 Y190.632 E17.18601
G1 X114.527 Y190.39 E17.19767
G1 X114.287 Y190.205 E17.20931
G1 X114.007 Y190.088 E17.22097
G1 X113.706 Y190.048 E17.23263
G1 X77.123 Y190.048 E18.63799
G1 X76.832 Y190.085 E18.64925
G1 X76.551 Y190.199 E18.6609
G1 X76.31 Y190.383 E18.67255
G1 X76.124 Y190.623 E18.68422
G1 X76.008 Y190.903 E18.69586
G1 X75.968 Y191.204 E18.70752
G1 X75.969 Y193.162 E18.78274
G1 X76.006 Y193.451 E18.79393
G1 X76.12 Y193.732 E18.80558
G1 X76.303 Y193.974 E18.81724
G1 X76.543 Y194.159 E18.82888
G1 X76.823 Y194.276 E18.84054
G1 X77.124 Y194.316 E18.8522
G1 X113.707 Y194.316 E20.25755
G1 X113.998 Y194.279 E20.26882
G1 X114.279 Y194.165 E20.28047
G1 X114.52 Y193.981 E20.29212
G1 X114.706 Y193.741 E20.30379
G1 X114.822 Y193.461 E20.31543
G1 X114.862 Y193.16 E20.32709
;;retract;;
G1 F1500 E19.76709
G1 F2400 X114.829 Y191.16 E19.53909
G1 F1500 E19.52709
G0 F4800 X114.862 Y193.16
G0 X117.598 Y192.557
G0 X128.062 Y192.556
G0 X130.798 Y193.161
G1 F1500 E20.32709
G1 X130.835 Y193.451 E20.33832
G1 X130.949 Y193.732 E20.34997
G1 X131.132 Y193.974 E20.36163
G1 X131.372 Y194.159 E20.37327
G1 X131.652 Y194.276 E20.38493
G1 X131.953 Y194.316 E20.39659
G1 X153.737 Y194.316 E21.23343
G1 X154.028 Y194.279 E21.2447
G1 X154.309 Y194.165 E21.25635
G1 X154.55 Y193.981 E21.268
G1 X154.736 Y193.741 E21.27966
G1 X154.852 Y193.461 E21.29131
G1 X154.892 Y193.16 E21.30297
G1 X154.891 Y191.202 E21.37819
G1 X154.854 Y190.913 E21.38938
G1 X154.74 Y190.632 E21.40103
G1 X154.557 Y190.39 E21.41269
G1 X154.317 Y190.205 E21.42433
G1 X154.037 Y190.088 E21.43599
G1 X153.736 Y190.048 E21.44765
G1 X131.953 Y190.048 E22.28445
G1 X131.663 Y190.085 E22.29568
G1 X131.382 Y190.199 E22.30733
G1 X131.14 Y190.382 E22.31899
G1 X130.955 Y190.622 E22.33063
G1 X130.838 Y190.902 E22.34229
G1 X130.798 Y191.203 E22.35395
G1 X130.798 Y193.161 E22.42917
G0 F4800 X131.722 Y193.228
G1 F1500 X131.856 Y193.392 E22.43731
G1 X153.804 Y193.392 E23.28045
G1 X153.968 Y193.258 E23.28858
G1 X153.967 Y191.136 E23.3701
G1 X153.833 Y190.972 E23.37824
G1 X131.886 Y190.972 E24.22134
G1 X131.722 Y191.106 E24.22948
G1 X131.722 Y193.228 E24.31099
G0 F4800 X131.26 Y193.269
G1 F1500 X131.362 Y193.523 E24.32151
G1 X131.517 Y193.7 E24.33055
G1 X131.953 Y193.854 E24.34831
G1 X153.844 Y193.854 E25.18926
G1 X154.215 Y193.706 E25.20461
G1 X154.43 Y193.32 E25.22158
G1 X154.429 Y191.095 E25.30706
G1 X154.327 Y190.841 E25.31757
G1 X154.172 Y190.664 E25.32661
G1 X153.736 Y190.51 E25.34437
G1 X131.845 Y190.51 E26.18532
G1 X131.474 Y190.659 E26.20068
G1 X131.26 Y191.044 E26.2176
G1 X131.26 Y193.269 E26.30308
;;retract;;
G1 F1500 E25.74308
G1 F2400 X131.517 Y193.7 E25.68596
G1 X131.953 Y193.854 E25.6333
G1 X132.99 Y193.854 E25.51508
G1 F1500 E25.50308
;MESH:0_4
G0 F4800 X131.26 Y193.269
G0 X91.684 Y49.567
G0 X91.822 Y47.503
;TYPE:WALL-OUTER
G1 F1500 E26.30308
G1 F1800 X91.556 Y47.69 E26.31532
G1 X91.283 Y47.817 E26.32666
G1 X90.953 Y47.909 E26.33955
G1 X90.633 Y47.937 E26.35165
G1 X90.316 Y47.91 E26.36362
G1 X89.977 Y47.817 E26.37686
G1 X89.708 Y47.692 E26.38802
G1 X89.443 Y47.506 E26.40021
G1 X89.215 Y47.28 E26.4123
G1 X89.014 Y46.989 E26.42561
G1 X88.883 Y46.7 E26.43756
G1 X88.803 Y46.385 E26.44979
G1 X88.779 Y46.07 E26.46169
G1 X88.803 Y45.785 E26.47245
G1 X88.897 Y45.431 E26.48624
G1 X89.034 Y45.146 E26.49815
G1 X89.21 Y44.896 E26.50966
G1 X89.438 Y44.668 E26.5218
G1 X89.707 Y44.479 E26.53417
G1 X89.989 Y44.346 E26.54591
G1 X90.295 Y44.263 E26.55785
G1 X90.61 Y44.234 E26.56976
G1 X90.927 Y44.258 E26.58173
G1 X91.284 Y44.352 E26.59562
G1 X91.569 Y44.489 E26.60753
G1 X91.826 Y44.671 E26.61938
G1 X92.062 Y44.91 E26.63203
G1 X92.227 Y45.147 E26.6429
G1 X92.373 Y45.454 E26.6557
G1 X92.455 Y45.768 E26.66792
G1 X92.481 Y46.101 E26.68049
G1 X92.454 Y46.405 E26.69198
G1 X92.371 Y46.722 E26.70432
G1 X92.236 Y47.008 E26.71622
G1 X92.035 Y47.29 E26.72926
G1 X91.822 Y47.503 E26.7406
G0 F4800 X91.659 Y47.618
;;retract;;
G1 F1500 E26.1806
G1 F2400 X91.283 Y47.817 E26.13215
G1 X90.953 Y47.909 E26.09316
G1 X90.633 Y47.937 E26.05657
G1 X90.316 Y47.91 E26.02032
G1 X89.977 Y47.817 E25.9803
G1 X89.757 Y47.715 E25.9526
G1 F1500 E25.9406
G0 F4800 X91.818 Y47.847
G0 X91.002 Y48.125
G0 X90.22 Y48.112
G0 X89.564 Y47.858
G0 X83.343 Y42.987
G0 X81.978 Y39.62
G1 F1500 E26.7406
G0 F4800 X82.603 Y39.669
G1 F1800 X82.697 Y39.316 E26.75435
G1 X82.834 Y39.031 E26.76626
G1 X83.019 Y38.771 E26.77827
G1 X83.244 Y38.548 E26.7902
G1 X83.504 Y38.366 E26.80215
G1 X83.793 Y38.231 E26.81416
G1 X84.092 Y38.149 E26.82583
G1 X84.43 Y38.118 E26.83861
G1 X84.747 Y38.145 E26.85058
G1 X85.074 Y38.234 E26.86334
G1 X85.358 Y38.367 E26.87515
G1 X85.607 Y38.541 E26.88658
G1 X85.847 Y38.777 E26.89926
G1 X86.034 Y39.044 E26.91153
G1 X86.163 Y39.316 E26.92286
G1 X86.257 Y39.661 E26.93632
G1 X86.282 Y39.951 E26.94728
G1 X86.251 Y40.306 E26.9607
G1 X86.178 Y40.585 E26.97155
G1 X86.039 Y40.889 E26.98414
G1 X85.85 Y41.16 E26.99658
G1 X85.604 Y41.401 E27.00954
G1 X85.334 Y41.586 E27.02186
G1 X85.045 Y41.717 E27.03381
G1 X84.73 Y41.797 E27.04604
G1 X84.41 Y41.821 E27.05812
G1 X84.095 Y41.791 E27.07004
G1 X83.816 Y41.718 E27.08089
G1 X83.518 Y41.582 E27.09323
G1 X83.248 Y41.395 E27.10559
G1 X83.025 Y41.177 E27.11733
G1 X82.833 Y40.908 E27.12977
G1 X82.697 Y40.624 E27.14163
G1 X82.603 Y40.27 E27.15542
G1 X82.579 Y39.955 E27.16731
G1 X82.603 Y39.669 E27.17811
G0 F4800 X82.654 Y39.476
G0 X82.131 Y39.563
;TYPE:WALL-INNER
G1 F1800 X82.236 Y39.17 E27.19486
G1 X82.404 Y38.812 E27.21113
G1 X82.646 Y38.466 E27.22851
G1 X82.947 Y38.173 E27.2458
G1 X83.266 Y37.947 E27.26189
G1 X83.628 Y37.782 E27.27827
G1 X84.022 Y37.672 E27.29511
G1 X84.433 Y37.636 E27.31209
G1 X84.83 Y37.674 E27.3285
G1 X85.22 Y37.778 E27.34511
G1 X85.605 Y37.957 E27.36259
G1 X85.93 Y38.187 E27.37898
G1 X86.218 Y38.469 E27.39557
G1 X86.443 Y38.794 E27.41184
G1 X86.597 Y39.113 E27.42642
G1 X86.64 Y39.231 E27.43159
G1 X86.732 Y39.604 E27.4474
G1 X86.76 Y39.997 E27.46362
G1 X86.728 Y40.373 E27.47915
G1 X86.622 Y40.775 E27.49626
G1 X86.456 Y41.123 E27.51213
G1 X86.22 Y41.463 E27.52916
G1 X85.934 Y41.751 E27.54587
G1 X85.597 Y41.992 E27.56292
G1 X85.23 Y42.164 E27.5796
G1 X84.831 Y42.269 E27.59659
G1 X84.429 Y42.303 E27.61319
G1 X84.027 Y42.268 E27.6298
G1 X83.694 Y42.18 E27.64398
G1 F1453.5 X83.245 Y42.113 E27.66712
G1 F1229 X82.891 Y41.865 E27.69317
G1 F1222.2 X82.602 Y41.605 E27.71674
G1 F1325.9 X82.561 Y41.45 E27.7257
G1 F1623 X82.441 Y41.182 E27.7391
G1 F1800 X82.38 Y41.077 E27.7441
G1 X82.237 Y40.77 E27.75804
G1 X82.131 Y40.372 E27.77499
G1 X82.097 Y39.977 E27.79131
G1 X82.131 Y39.563 E27.80841
;;retract;;
G1 F1500 E27.24841
G1 F2400 X82.404 Y38.812 E27.15732
